assets/.cache/luts/pop.cube
# Generated by aivideomaker post-grade.mjs — preset "pop"
LUT_3D_SIZE 17
DOMAIN_MIN 0.0 0.0 0.0
DOMAIN_MAX 1.0 1.0 1.0
0.000000 0.000000 0.000000
0.010945 0.000000 0.000000
0.087559 0.000000 0.000000
0.164173 0.000000 0.000000
0.240787 0.000000 0.000000
0.317402 0.000000 0.000000
0.394016 0.000000 0.000000
0.470630 0.000000 0.000000
0.547244 0.000000 0.000000
0.623858 0.000000 0.000000
0.700472 0.000000 0.000000
0.777086 0.000000 0.000000
0.853701 0.000000 0.000000
0.930315 0.000000 0.000000
1.000000 0.000000 0.000000
1.000000 0.000000 0.000000
1.000000 0.000000 0.000000
0.000000 0.010342 0.000000
0.010087 0.010087 0.000000
0.086701 0.008301 0.000000
0.163315 0.006515 0.000000
0.239929 0.004729 0.000000
0.316543 0.002943 0.000000
0.393157 0.001157 0.000000
0.469772 0.000000 0.000000
0.546386 0.000000 0.000000
0.623000 0.000000 0.000000
0.699614 0.000000 0.000000
0.776228 0.000000 0.000000
0.852842 0.000000 0.000000
0.929457 0.000000 0.000000
1.000000 0.000000 0.000000
1.000000 0.000000 0.000000
1.000000 0.000000 0.000000
0.000000 0.082734 0.000000
0.004079 0.082479 0.000000
0.080693 0.080693 0.000000
0.157307 0.078907 0.000000
0.233921 0.077121 0.000000
0.310536 0.075336 0.000000
0.387150 0.073550 0.000000
0.463764 0.071764 0.000000
0.540378 0.069978 0.000000
0.616992 0.068192 0.000000
0.693606 0.066406 0.000000
0.770221 0.064621 0.000000
0.846835 0.062835 0.000000
0.923449 0.061049 0.000000
1.000000 0.059263 0.000000
1.000000 0.057477 0.000000
1.000000 0.057222 0.000000
0.000000 0.155126 0.000000
0.000000 0.154871 0.000000
0.074685 0.153085 0.000000
0.151300 0.151300 0.000000
0.227914 0.149514 0.000000
0.304528 0.147728 0.000000
0.381142 0.145942 0.000000
0.457756 0.144156 0.000000
0.534370 0.142370 0.000000
0.610985 0.140585 0.000000
0.687599 0.138799 0.000000
0.764213 0.137013 0.000000
0.840827 0.135227 0.000000
0.917441 0.133441 0.000000
0.994055 0.131655 0.000000
1.000000 0.129870 0.000000
1.000000 0.129614 0.000000
0.000000 0.227519 0.000000
0.000000 0.227264 0.000000
0.068678 0.225478 0.000000
0.145292 0.223692 0.000000
0.221906 0.221906 0.000000
0.298520 0.220120 0.000000
0.375134 0.218334 0.000000
0.451749 0.216549 0.000000
0.528363 0.214763 0.000000
0.604977 0.212977 0.000000
0.681591 0.211191 0.000000
0.758205 0.209405 0.000000
0.834819 0.207619 0.000000
0.911434 0.205834 0.000000
0.988048 0.204048 0.000000
1.000000 0.202262 0.000000
1.000000 0.202007 0.000000
0.000000 0.299911 0.000000
0.000000 0.299656 0.000000
0.062670 0.297870 0.000000
0.139284 0.296084 0.000000
0.215898 0.294298 0.000000
0.292513 0.292513 0.000000
0.369127 0.290727 0.000000
0.445741 0.288941 0.000000
0.522355 0.287155 0.000000
0.598969 0.285369 0.000000
0.675583 0.283583 0.000000
0.752198 0.281798 0.000000
0.828812 0.280012 0.000000
0.905426 0.278226 0.000000
0.982040 0.276440 0.000000
1.000000 0.274654 0.000000
1.000000 0.274399 0.000000
0.000000 0.372303 0.000000
0.000000 0.372048 0.000000
0.056662 0.370262 0.000000
0.133277 0.368477 0.000000
0.209891 0.366691 0.000000
0.286505 0.364905 0.000000
0.363119 0.363119 0.000000
0.439733 0.361333 0.000000
0.516347 0.359547 0.000000
0.592962 0.357762 0.000000
0.669576 0.355976 0.000000
0.746190 0.354190 0.000000
0.822804 0.352404 0.000000
0.899418 0.350618 0.000000
0.976032 0.348832 0.000000
1.000000 0.347046 0.000000
1.000000 0.346791 0.000000
0.000000 0.444696 0.000000
0.000000 0.444441 0.000000
0.050655 0.442655 0.000000
0.127269 0.440869 0.000000
0.203883 0.439083 0.000000
0.280497 0.437297 0.000000
0.357111 0.435511 0.000000
0.433726 0.433726 0.000000
0.510340 0.431940 0.000000
0.586954 0.430154 0.000000
0.663568 0.428368 0.000000
0.740182 0.426582 0.000000
0.816796 0.424796 0.000000
0.893410 0.423010 0.000000
0.970025 0.421225 0.000000
1.000000 0.419439 0.000000
1.000000 0.419184 0.000000
0.000000 0.517088 0.000000
0.000000 0.516833 0.000000
0.044647 0.515047 0.000000
0.121261 0.513261 0.000000
0.197875 0.511475 0.000000
0.274490 0.509690 0.000000
0.351104 0.507904 0.000000
0.427718 0.506118 0.000000
0.504332 0.504332 0.000000
0.580946 0.502546 0.000000
0.657560 0.500760 0.000000
0.734174 0.498974 0.000000
0.810789 0.497189 0.000000
0.887403 0.495403 0.000000
0.964017 0.493617 0.000000
1.000000 0.491831 0.000000
1.000000 0.491576 0.000000
0.000000 0.589480 0.000000
0.000000 0.589225 0.000000
0.038639 0.587439 0.000000
0.115254 0.585654 0.000000
0.191868 0.583868 0.000000
0.268482 0.582082 0.000000
0.345096 0.580296 0.000000
0.421710 0.578510 0.000000
0.498324 0.576724 0.000000
0.574938 0.574938 0.000000
0.651553 0.573153 0.000000
0.728167 0.571367 0.000000
0.804781 0.569581 0.000000
0.881395 0.567795 0.000000
0.958009 0.566009 0.000000
1.000000 0.564223 0.000000
1.000000 0.563968 0.000000
0.000000 0.661873 0.000000
0.000000 0.661618 0.000000
0.032632 0.659832 0.000000
0.109246 0.658046 0.000000
0.185860 0.656260 0.000000
0.262474 0.654474 0.000000
0.339088 0.652688 0.000000
0.415702 0.650902 0.000000
0.492317 0.649117 0.000000
0.568931 0.647331 0.000000
0.645545 0.645545 0.000000
0.722159 0.643759 0.000000
0.798773 0.641973 0.000000
0.875387 0.640187 0.000000
0.952002 0.638402 0.000000
1.000000 0.636616 0.000000
1.000000 0.636361 0.000000
0.000000 0.734265 0.000000
0.000000 0.734010 0.000000
0.026624 0.732224 0.000000
0.103238 0.730438 0.000000
0.179852 0.728652 0.000000
0.256466 0.726866 0.000000
0.333081 0.725081 0.000000
0.409695 0.723295 0.000000
0.486309 0.721509 0.000000
0.562923 0.719723 0.000000
0.639537 0.717937 0.000000
0.716151 0.716151 0.000000
0.792766 0.714366 0.000000
0.869380 0.712580 0.000000
0.945994 0.710794 0.000000
1.000000 0.709008 0.000000
1.000000 0.708753 0.000000
0.000000 0.806657 0.000000
0.000000 0.806402 0.000000
0.020616 0.804616 0.000000
0.097230 0.802830 0.000000
0.173845 0.801045 0.000000
0.250459 0.799259 0.000000
0.327073 0.797473 0.000000
0.403687 0.795687 0.000000
0.480301 0.793901 0.000000
0.556915 0.792115 0.000000
0.633530 0.790330 0.000000
0.710144 0.788544 0.000000
0.786758 0.786758 0.000000
0.863372 0.784972 0.000000
0.939986 0.783186 0.000000
1.000000 0.781400 0.000000
1.000000 0.781145 0.000000
0.000000 0.879050 0.000000
0.000000 0.878794 0.000000
0.014609 0.877009 0.000000
0.091223 0.875223 0.000000
0.167837 0.873437 0.000000
0.244451 0.871651 0.000000
0.321065 0.869865 0.000000
0.397679 0.868079 0.000000
0.474294 0.866294 0.000000
0.550908 0.864508 0.000000
0.627522 0.862722 0.000000
0.704136 0.860936 0.000000
0.780750 0.859150 0.000000
0.857364 0.857364 0.000000
0.933979 0.855579 0.000000
1.000000 0.853793 0.000000
1.000000 0.853538 0.000000
0.000000 0.951442 0.000000
0.000000 0.951187 0.000000
0.008601 0.949401 0.000000
0.085215 0.947615 0.000000
0.161829 0.945829 0.000000
0.238443 0.944043 0.000000
0.315058 0.942258 0.000000
0.391672 0.940472 0.000000
0.468286 0.938686 0.000000
0.544900 0.936900 0.000000
0.621514 0.935114 0.000000
0.698128 0.933328 0.000000
0.774743 0.931543 0.000000
0.851357 0.929757 0.000000
0.927971 0.927971 0.000000
1.000000 0.926185 0.000000
1.000000 0.925930 0.000000
0.000000 1.000000 0.000000
0.000000 1.000000 0.000000
0.002593 1.000000 0.000000
0.079207 1.000000 0.000000
0.155822 1.000000 0.000000
0.232436 1.000000 0.000000
0.309050 1.000000 0.000000
0.385664 1.000000 0.000000
0.462278 1.000000 0.000000
0.538892 1.000000 0.000000
0.615507 1.000000 0.000000
0.692121 1.000000 0.000000
0.768735 1.000000 0.000000
0.845349 1.000000 0.000000
0.921963 1.000000 0.000000
0.998577 0.998577 0.000000
1.000000 0.998322 0.000000
0.000000 1.000000 0.000000
0.000000 1.000000 0.000000
0.001735 1.000000 0.000000
0.078349 1.000000 0.000000
0.154963 1.000000 0.000000
0.231578 1.000000 0.000000
0.308192 1.000000 0.000000
0.384806 1.000000 0.000000
0.461420 1.000000 0.000000
0.538034 1.000000 0.000000
0.614648 1.000000 0.000000
0.691262 1.000000 0.000000
0.767877 1.000000 0.000000
0.844491 1.000000 0.000000
0.921105 1.000000 0.000000
0.997719 1.000000 0.000000
1.000000 1.000000 0.000000
0.000000 0.000000 0.011113
0.010858 0.000000 0.010858
0.087472 0.000000 0.009072
0.164087 0.000000 0.007287
0.240701 0.000000 0.005501
0.317315 0.000000 0.003715
0.393929 0.000000 0.001929
0.470543 0.000000 0.000143
0.547157 0.000000 0.000000
0.623772 0.000000 0.000000
0.700386 0.000000 0.000000
0.777000 0.000000 0.000000
0.853614 0.000000 0.000000
0.930228 0.000000 0.000000
1.000000 0.000000 0.000000
1.000000 0.000000 0.000000
1.000000 0.000000 0.000000
0.000000 0.010255 0.010255
0.010000 0.010000 0.010000
0.086614 0.008214 0.008214
0.163228 0.006428 0.006428
0.239842 0.004642 0.004642
0.316457 0.002857 0.002857
0.393071 0.001071 0.001071
0.469685 0.000000 0.000000
0.546299 0.000000 0.000000
0.622913 0.000000 0.000000
0.699527 0.000000 0.000000
0.776142 0.000000 0.000000
0.852756 0.000000 0.000000
0.929370 0.000000 0.000000
1.000000 0.000000 0.000000
1.000000 0.000000 0.000000
1.000000 0.000000 0.000000
0.000000 0.082647 0.004247
0.003992 0.082392 0.003992
0.080606 0.080606 0.002206
0.157221 0.078821 0.000421
0.233835 0.077035 0.000000
0.310449 0.075249 0.000000
0.387063 0.073463 0.000000
0.463677 0.071677 0.000000
0.540291 0.069891 0.000000
0.616906 0.068106 0.000000
0.693520 0.066320 0.000000
0.770134 0.064534 0.000000
0.846748 0.062748 0.000000
0.923362 0.060962 0.000000
0.999976 0.059176 0.000000
1.000000 0.057391 0.000000
1.000000 0.057135 0.000000
0.000000 0.155040 0.000000
0.000000 0.154785 0.000000
0.074599 0.152999 0.000000
0.151213 0.151213 0.000000
0.227827 0.149427 0.000000
0.304441 0.147641 0.000000
0.381055 0.145855 0.000000
0.457670 0.144070 0.000000
0.534284 0.142284 0.000000
0.610898 0.140498 0.000000
0.687512 0.138712 0.000000
0.764126 0.136926 0.000000
0.840740 0.135140 0.000000
0.917355 0.133355 0.000000
0.993969 0.131569 0.000000
1.000000 0.129783 0.000000
1.000000 0.129528 0.000000
0.000000 0.227432 0.000000
0.000000 0.227177 0.000000
0.068591 0.225391 0.000000
0.145205 0.223605 0.000000
0.221819 0.221819 0.000000
0.298434 0.220034 0.000000
0.375048 0.218248 0.000000
0.451662 0.216462 0.000000
0.528276 0.214676 0.000000
0.604890 0.212890 0.000000
0.681504 0.211104 0.000000
0.758119 0.209319 0.000000
0.834733 0.207533 0.000000
0.911347 0.205747 0.000000
0.987961 0.203961 0.000000
1.000000 0.202175 0.000000
1.000000 0.201920 0.000000
0.000000 0.299824 0.000000
0.000000 0.299569 0.000000
0.062583 0.297783 0.000000
0.139198 0.295998 0.000000
0.215812 0.294212 0.000000
0.292426 0.292426 0.000000
0.369040 0.290640 0.000000
0.445654 0.288854 0.000000
0.522268 0.287068 0.000000
0.598883 0.285283 0.000000
0.675497 0.283497 0.000000
0.752111 0.281711 0.000000
0.828725 0.279925 0.000000
0.905339 0.278139 0.000000
0.981953 0.276353 0.000000
1.000000 0.274568 0.000000
1.000000 0.274312 0.000000
0.000000 0.372217 0.000000
0.000000 0.371962 0.000000
0.056576 0.370176 0.000000
0.133190 0.368390 0.000000
0.209804 0.366604 0.000000
0.286418 0.364818 0.000000
0.363032 0.363032 0.000000
0.439647 0.361247 0.000000
0.516261 0.359461 0.000000
0.592875 0.357675 0.000000
0.669489 0.355889 0.000000
0.746103 0.354103 0.000000
0.822717 0.352317 0.000000
0.899332 0.350532 0.000000
0.975946 0.348746 0.000000
1.000000 0.346960 0.000000
1.000000 0.346705 0.000000
0.000000 0.444609 0.000000
0.000000 0.444354 0.000000
0.050568 0.442568 0.000000
0.127182 0.440782 0.000000
0.203796 0.438996 0.000000
0.280411 0.437211 0.000000
0.357025 0.435425 0.000000
0.433639 0.433639 0.000000
0.510253 0.431853 0.000000
0.586867 0.430067 0.000000
0.663481 0.428281 0.000000
0.740096 0.426496 0.000000
0.816710 0.424710 0.000000
0.893324 0.422924 0.000000
0.969938 0.421138 0.000000
1.000000 0.419352 0.000000
1.000000 0.419097 0.000000
0.000000 0.517001 0.000000
0.000000 0.516746 0.000000
0.044560 0.514960 0.000000
0.121175 0.513175 0.000000
0.197789 0.511389 0.000000
0.274403 0.509603 0.000000
0.351017 0.507817 0.000000
0.427631 0.506031 0.000000
0.504245 0.504245 0.000000
0.580860 0.502460 0.000000
0.657474 0.500674 0.000000
0.734088 0.498888 0.000000
0.810702 0.497102 0.000000
0.887316 0.495316 0.000000
0.963930 0.493530 0.000000
1.000000 0.491744 0.000000
1.000000 0.491489 0.000000
0.000000 0.589394 0.000000
0.000000 0.589139 0.000000
0.038553 0.587353 0.000000
0.115167 0.585567 0.000000
0.191781 0.583781 0.000000
0.268395 0.581995 0.000000
0.345009 0.580209 0.000000
0.421624 0.578424 0.000000
0.498238 0.576638 0.000000
0.574852 0.574852 0.000000
0.651466 0.573066 0.000000
0.728080 0.571280 0.000000
0.804694 0.569494 0.000000
0.881308 0.567708 0.000000
0.957923 0.565923 0.000000
1.000000 0.564137 0.000000
1.000000 0.563882 0.000000
0.000000 0.661786 0.000000
0.000000 0.661531 0.000000
0.032545 0.659745 0.000000
0.109159 0.657959 0.000000
0.185773 0.656173 0.000000
0.262388 0.654388 0.000000
0.339002 0.652602 0.000000
0.415616 0.650816 0.000000
0.492230 0.649030 0.000000
0.568844 0.647244 0.000000
0.645458 0.645458 0.000000
0.722072 0.643672 0.000000
0.798687 0.641887 0.000000
0.875301 0.640101 0.000000
0.951915 0.638315 0.000000
1.000000 0.636529 0.000000
1.000000 0.636274 0.000000
0.000000 0.734178 0.000000
0.000000 0.733923 0.000000
0.026537 0.732137 0.000000
0.103152 0.730352 0.000000
0.179766 0.728566 0.000000
0.256380 0.726780 0.000000
0.332994 0.724994 0.000000
0.409608 0.723208 0.000000
0.486222 0.721422 0.000000
0.562836 0.719636 0.000000
0.639451 0.717851 0.000000
0.716065 0.716065 0.000000
0.792679 0.714279 0.000000
0.869293 0.712493 0.000000
0.945907 0.710707 0.000000
1.000000 0.708921 0.000000
1.000000 0.708666 0.000000
0.000000 0.806571 0.000000
0.000000 0.806316 0.000000
0.020530 0.804530 0.000000
0.097144 0.802744 0.000000
0.173758 0.800958 0.000000
0.250372 0.799172 0.000000
0.326986 0.797386 0.000000
0.403600 0.795600 0.000000
0.480215 0.793815 0.000000
0.556829 0.792029 0.000000
0.633443 0.790243 0.000000
0.710057 0.788457 0.000000
0.786671 0.786671 0.000000
0.863285 0.784885 0.000000
0.939900 0.783100 0.000000
1.000000 0.781314 0.000000
1.000000 0.781059 0.000000
0.000000 0.878963 0.000000
0.000000 0.878708 0.000000
0.014522 0.876922 0.000000
0.091136 0.875136 0.000000
0.167750 0.873350 0.000000
0.244364 0.871564 0.000000
0.320979 0.869779 0.000000
0.397593 0.867993 0.000000
0.474207 0.866207 0.000000
0.550821 0.864421 0.000000
0.627435 0.862635 0.000000
0.704049 0.860849 0.000000
0.780664 0.859064 0.000000
0.857278 0.857278 0.000000
0.933892 0.855492 0.000000
1.000000 0.853706 0.000000
1.000000 0.853451 0.000000
0.000000 0.951355 0.000000
0.000000 0.951100 0.000000
0.008514 0.949314 0.000000
0.085128 0.947528 0.000000
0.161743 0.945743 0.000000
0.238357 0.943957 0.000000
0.314971 0.942171 0.000000
0.391585 0.940385 0.000000
0.468199 0.938599 0.000000
0.544813 0.936813 0.000000
0.621428 0.935028 0.000000
0.698042 0.933242 0.000000
0.774656 0.931456 0.000000
0.851270 0.929670 0.000000
0.927884 0.927884 0.000000
1.000000 0.926098 0.000000
1.000000 0.925843 0.000000
0.000000 1.000000 0.000000
0.000000 1.000000 0.000000
0.002507 1.000000 0.000000
0.079121 1.000000 0.000000
0.155735 1.000000 0.000000
0.232349 1.000000 0.000000
0.308963 1.000000 0.000000
0.385577 1.000000 0.000000
0.462192 1.000000 0.000000
0.538806 1.000000 0.000000
0.615420 1.000000 0.000000
0.692034 1.000000 0.000000
0.768648 1.000000 0.000000
0.845262 1.000000 0.000000
0.921877 1.000000 0.000000
0.998491 0.998491 0.000000
1.000000 0.998236 0.000000
0.000000 1.000000 0.000000
0.000000 1.000000 0.000000
0.001648 1.000000 0.000000
0.078263 1.000000 0.000000
0.154877 1.000000 0.000000
0.231491 1.000000 0.000000
0.308105 1.000000 0.000000
0.384719 1.000000 0.000000
0.461333 1.000000 0.000000
0.537948 1.000000 0.000000
0.614562 1.000000 0.000000
0.691176 1.000000 0.000000
0.767790 1.000000 0.000000
0.844404 1.000000 0.000000
0.921018 1.000000 0.000000
0.997632 1.000000 0.000000
1.000000 1.000000 0.000000
0.000000 0.000000 0.088907
0.010252 0.000000 0.088652
0.086866 0.000000 0.086866
0.163480 0.000000 0.085080
0.240094 0.000000 0.083294
0.316708 0.000000 0.081508
0.393323 0.000000 0.079723
0.469937 0.000000 0.077937
0.546551 0.000000 0.076151
0.623165 0.000000 0.074365
0.699779 0.000000 0.072579
0.776393 0.000000 0.070793
0.853008 0.000000 0.069008
0.929622 0.000000 0.067222
1.000000 0.000000 0.065436
1.000000 0.000000 0.063650
1.000000 0.000000 0.063395
0.000000 0.009649 0.088049
0.009394 0.009394 0.087794
0.086008 0.007608 0.086008
0.162622 0.005822 0.084222
0.239236 0.004036 0.082436
0.315850 0.002250 0.080650
0.392464 0.000464 0.078864
0.469078 0.000000 0.077078
0.545693 0.000000 0.075293
0.622307 0.000000 0.073507
0.698921 0.000000 0.071721
0.775535 0.000000 0.069935
0.852149 0.000000 0.068149
0.928763 0.000000 0.066363
1.000000 0.000000 0.064578
1.000000 0.000000 0.062792
1.000000 0.000000 0.062537
0.000000 0.082041 0.082041
0.003386 0.081786 0.081786
0.080000 0.080000 0.080000
0.156614 0.078214 0.078214
0.233228 0.076428 0.076428
0.309842 0.074642 0.074642
0.386457 0.072857 0.072857
0.463071 0.071071 0.071071
0.539685 0.069285 0.069285
0.616299 0.067499 0.067499
0.692913 0.065713 0.065713
0.769527 0.063927 0.063927
0.846142 0.062142 0.062142
0.922756 0.060356 0.060356
0.999370 0.058570 0.058570
1.000000 0.056784 0.056784
1.000000 0.056529 0.056529
0.000000 0.154433 0.076033
0.000000 0.154178 0.075778
0.073992 0.152392 0.073992
0.150606 0.150606 0.072206
0.227221 0.148821 0.070421
0.303835 0.147035 0.068635
0.380449 0.145249 0.066849
0.457063 0.143463 0.065063
0.533677 0.141677 0.063277
0.610291 0.139891 0.061491
0.686906 0.138106 0.059706
0.763520 0.136320 0.057920
0.840134 0.134534 0.056134
0.916748 0.132748 0.054348
0.993362 0.130962 0.052562
1.000000 0.129176 0.050776
1.000000 0.128921 0.050521
0.000000 0.226826 0.070026
0.000000 0.226570 0.069770
0.067985 0.224785 0.067985
0.144599 0.222999 0.066199
0.221213 0.221213 0.064413
0.297827 0.219427 0.062627
0.374441 0.217641 0.060841
0.451055 0.215855 0.059055
0.527670 0.214070 0.057270
0.604284 0.212284 0.055484
0.680898 0.210498 0.053698
0.757512 0.208712 0.051912
0.834126 0.206926 0.050126
0.910740 0.205140 0.048340
0.987355 0.203355 0.046555
1.000000 0.201569 0.044769
1.000000 0.201314 0.044514
0.000000 0.299218 0.064018
0.000000 0.298963 0.063763
0.061977 0.297177 0.061977
0.138591 0.295391 0.060191
0.215205 0.293605 0.058405
0.291819 0.291819 0.056619
0.368434 0.290034 0.054834
0.445048 0.288248 0.053048
0.521662 0.286462 0.051262
0.598276 0.284676 0.049476
0.674890 0.282890 0.047690
0.751504 0.281104 0.045904
0.828119 0.279319 0.044119
0.904733 0.277533 0.042333
0.981347 0.275747 0.040547
1.000000 0.273961 0.038761
1.000000 0.273706 0.038506
0.000000 0.371610 0.058010
0.000000 0.371355 0.057755
0.055969 0.369569 0.055969
0.132583 0.367783 0.054183
0.209198 0.365998 0.052398
0.285812 0.364212 0.050612
0.362426 0.362426 0.048826
0.439040 0.360640 0.047040
0.515654 0.358854 0.045254
0.592268 0.357068 0.043468
0.668883 0.355283 0.041683
0.745497 0.353497 0.039897
0.822111 0.351711 0.038111
0.898725 0.349925 0.036325
0.975339 0.348139 0.034539
1.000000 0.346353 0.032753
1.000000 0.346098 0.032498
0.000000 0.444003 0.052003
0.000000 0.443747 0.051747
0.049962 0.441962 0.049962
0.126576 0.440176 0.048176
0.203190 0.438390 0.046390
0.279804 0.436604 0.044604
0.356418 0.434818 0.042818
0.433032 0.433032 0.041032
0.509647 0.431247 0.039247
0.586261 0.429461 0.037461
0.662875 0.427675 0.035675
0.739489 0.425889 0.033889
0.816103 0.424103 0.032103
0.892717 0.422317 0.030317
0.969332 0.420532 0.028532
1.000000 0.418746 0.026746
1.000000 0.418491 0.026491
0.000000 0.516395 0.045995
0.000000 0.516140 0.045740
0.043954 0.514354 0.043954
0.120568 0.512568 0.042168
0.197182 0.510782 0.040382
0.273796 0.508996 0.038596
0.350411 0.507211 0.036811
0.427025 0.505425 0.035025
0.503639 0.503639 0.033239
0.580253 0.501853 0.031453
0.656867 0.500067 0.029667
0.733481 0.498281 0.027881
0.810096 0.496496 0.026096
0.886710 0.494710 0.024310
0.963324 0.492924 0.022524
1.000000 0.491138 0.020738
1.000000 0.490883 0.020483
0.000000 0.588787 0.039987
0.000000 0.588532 0.039732
0.037946 0.586746 0.037946
0.114560 0.584960 0.036160
0.191175 0.583175 0.034375
0.267789 0.581389 0.032589
0.344403 0.579603 0.030803
0.421017 0.577817 0.029017
0.497631 0.576031 0.027231
0.574245 0.574245 0.025445
0.650860 0.572460 0.023660
0.727474 0.570674 0.021874
0.804088 0.568888 0.020088
0.880702 0.567102 0.018302
0.957316 0.565316 0.016516
1.000000 0.563530 0.014730
1.000000 0.563275 0.014475
0.000000 0.661180 0.033980
0.000000 0.660924 0.033724
0.031939 0.659139 0.031939
0.108553 0.657353 0.030153
0.185167 0.655567 0.028367
0.261781 0.653781 0.026581
0.338395 0.651995 0.024795
0.415009 0.650209 0.023009
0.491624 0.648424 0.021224
0.568238 0.646638 0.019438
0.644852 0.644852 0.017652
0.721466 0.643066 0.015866
0.798080 0.641280 0.014080
0.874694 0.639494 0.012294
0.951308 0.637708 0.010508
1.000000 0.635923 0.008723
1.000000 0.635668 0.008468
0.000000 0.733572 0.027972
0.000000 0.733317 0.027717
0.025931 0.731531 0.025931
0.102545 0.729745 0.024145
0.179159 0.727959 0.022359
0.255773 0.726173 0.020573
0.332388 0.724388 0.018788
0.409002 0.722602 0.017002
0.485616 0.720816 0.015216
0.562230 0.719030 0.013430
0.638844 0.717244 0.011644
0.715458 0.715458 0.009858
0.792072 0.713672 0.008072
0.868687 0.711887 0.006287
0.945301 0.710101 0.004501
1.000000 0.708315 0.002715
1.000000 0.708060 0.002460
0.000000 0.805964 0.021964
0.000000 0.805709 0.021709
0.019923 0.803923 0.019923
0.096537 0.802137 0.018137
0.173152 0.800352 0.016352
0.249766 0.798566 0.014566
0.326380 0.796780 0.012780
0.402994 0.794994 0.010994
0.479608 0.793208 0.009208
0.556222 0.791422 0.007422
0.632836 0.789636 0.005636
0.709451 0.787851 0.003851
0.786065 0.786065 0.002065
0.862679 0.784279 0.000279
0.939293 0.782493 0.000000
1.000000 0.780707 0.000000
1.000000 0.780452 0.000000
0.000000 0.878356 0.015956
0.000000 0.878101 0.015701
0.013916 0.876316 0.013916
0.090530 0.874530 0.012130
0.167144 0.872744 0.010344
0.243758 0.870958 0.008558
0.320372 0.869172 0.006772
0.396986 0.867386 0.004986
0.473600 0.865600 0.003200
0.550215 0.863815 0.001415
0.626829 0.862029 0.000000
0.703443 0.860243 0.000000
0.780057 0.858457 0.000000
0.856671 0.856671 0.000000
0.933285 0.854885 0.000000
1.000000 0.853100 0.000000
1.000000 0.852844 0.000000
0.000000 0.950749 0.009949
0.000000 0.950494 0.009694
0.007908 0.948708 0.007908
0.084522 0.946922 0.006122
0.161136 0.945136 0.004336
0.237750 0.943350 0.002550
0.314364 0.941564 0.000764
0.390979 0.939779 0.000000
0.467593 0.937993 0.000000
0.544207 0.936207 0.000000
0.620821 0.934421 0.000000
0.697435 0.932635 0.000000
0.774049 0.930849 0.000000
0.850664 0.929064 0.000000
0.927278 0.927278 0.000000
1.000000 0.925492 0.000000
1.000000 0.925237 0.000000
0.000000 1.000000 0.003941
0.000000 1.000000 0.003686
0.001900 1.000000 0.001900
0.078514 1.000000 0.000114
0.155128 1.000000 0.000000
0.231743 1.000000 0.000000
0.308357 1.000000 0.000000
0.384971 1.000000 0.000000
0.461585 1.000000 0.000000
0.538199 1.000000 0.000000
0.614813 1.000000 0.000000
0.691428 1.000000 0.000000
0.768042 1.000000 0.000000
0.844656 1.000000 0.000000
0.921270 0.999670 0.000000
0.997884 0.997884 0.000000
1.000000 0.997629 0.000000
0.000000 1.000000 0.003083
0.000000 1.000000 0.002828
0.001042 1.000000 0.001042
0.077656 1.000000 0.000000
0.154270 1.000000 0.000000
0.230884 1.000000 0.000000
0.307499 1.000000 0.000000
0.384113 1.000000 0.000000
0.460727 1.000000 0.000000
0.537341 1.000000 0.000000
0.613955 1.000000 0.000000
0.690569 1.000000 0.000000
0.767184 1.000000 0.000000
0.843798 1.000000 0.000000
0.920412 1.000000 0.000000
0.997026 1.000000 0.000000
1.000000 1.000000 0.000000
0.000000 0.000000 0.166700
0.009645 0.000000 0.166445
0.086259 0.000000 0.164659
0.162874 0.000000 0.162874
0.239488 0.000000 0.161088
0.316102 0.000000 0.159302
0.392716 0.000000 0.157516
0.469330 0.000000 0.155730
0.545944 0.000000 0.153944
0.622559 0.000000 0.152159
0.699173 0.000000 0.150373
0.775787 0.000000 0.148587
0.852401 0.000000 0.146801
0.929015 0.000000 0.145015
1.000000 0.000000 0.143229
1.000000 0.000000 0.141444
1.000000 0.000000 0.141188
