assets/.cache/luts/pop.cube
# Generated by aivideomaker post-grade.mjs — preset "pop"
LUT_3D_SIZE 9
DOMAIN_MIN 0.0 0.0 0.0
DOMAIN_MAX 1.0 1.0 1.0
0.000000 0.000000 0.000000
0.087559 0.000000 0.000000
0.240787 0.000000 0.000000
0.394016 0.000000 0.000000
0.547244 0.000000 0.000000
0.700472 0.000000 0.000000
0.853701 0.000000 0.000000
1.000000 0.000000 0.000000
1.000000 0.000000 0.000000
0.000000 0.082734 0.000000
0.080693 0.080693 0.000000
0.233921 0.077121 0.000000
0.387150 0.073550 0.000000
0.540378 0.069978 0.000000
0.693606 0.066406 0.000000
0.846835 0.062835 0.000000
1.000000 0.059263 0.000000
1.000000 0.057222 0.000000
0.000000 0.227519 0.000000
0.068678 0.225478 0.000000
0.221906 0.221906 0.000000
0.375134 0.218334 0.000000
0.528363 0.214763 0.000000
0.681591 0.211191 0.000000
0.834819 0.207619 0.000000
0.988048 0.204048 0.000000
1.000000 0.202007 0.000000
0.000000 0.372303 0.000000
0.056662 0.370262 0.000000
0.209891 0.366691 0.000000
0.363119 0.363119 0.000000
0.516347 0.359547 0.000000
0.669576 0.355976 0.000000
0.822804 0.352404 0.000000
0.976032 0.348832 0.000000
1.000000 0.346791 0.000000
0.000000 0.517088 0.000000
0.044647 0.515047 0.000000
0.197875 0.511475 0.000000
0.351104 0.507904 0.000000
0.504332 0.504332 0.000000
0.657560 0.500760 0.000000
0.810789 0.497189 0.000000
0.964017 0.493617 0.000000
1.000000 0.491576 0.000000
0.000000 0.661873 0.000000
0.032632 0.659832 0.000000
0.185860 0.656260 0.000000
0.339088 0.652688 0.000000
0.492317 0.649117 0.000000
0.645545 0.645545 0.000000
0.798773 0.641973 0.000000
0.952002 0.638402 0.000000
1.000000 0.636361 0.000000
0.000000 0.806657 0.000000
0.020616 0.804616 0.000000
0.173845 0.801045 0.000000
0.327073 0.797473 0.000000
0.480301 0.793901 0.000000
0.633530 0.790330 0.000000
0.786758 0.786758 0.000000
0.939986 0.783186 0.000000
1.000000 0.781145 0.000000
0.000000 0.951442 0.000000
0.008601 0.949401 0.000000
0.161829 0.945829 0.000000
0.315058 0.942258 0.000000
0.468286 0.938686 0.000000
0.621514 0.935114 0.000000
0.774743 0.931543 0.000000
0.927971 0.927971 0.000000
1.000000 0.925930 0.000000
0.000000 1.000000 0.000000
0.001735 1.000000 0.000000
0.154963 1.000000 0.000000
0.308192 1.000000 0.000000
0.461420 1.000000 0.000000
0.614648 1.000000 0.000000
0.767877 1.000000 0.000000
0.921105 1.000000 0.000000
1.000000 1.000000 0.000000
0.000000 0.000000 0.088907
0.086866 0.000000 0.086866
0.240094 0.000000 0.083294
0.393323 0.000000 0.079723
0.546551 0.000000 0.076151
0.699779 0.000000 0.072579
0.853008 0.000000 0.069008
1.000000 0.000000 0.065436
1.000000 0.000000 0.063395
0.000000 0.082041 0.082041
0.080000 0.080000 0.080000
0.233228 0.076428 0.076428
0.386457 0.072857 0.072857
0.539685 0.069285 0.069285
0.692913 0.065713 0.065713
0.846142 0.062142 0.062142
0.999370 0.058570 0.058570
1.000000 0.056529 0.056529
0.000000 0.226826 0.070026
0.067985 0.224785 0.067985
0.221213 0.221213 0.064413
0.374441 0.217641 0.060841
0.527670 0.214070 0.057270
0.680898 0.210498 0.053698
0.834126 0.206926 0.050126
0.987355 0.203355 0.046555
1.000000 0.201314 0.044514
0.000000 0.371610 0.058010
0.055969 0.369569 0.055969
0.209198 0.365998 0.052398
0.362426 0.362426 0.048826
0.515654 0.358854 0.045254
0.668883 0.355283 0.041683
0.822111 0.351711 0.038111
0.975339 0.348139 0.034539
1.000000 0.346098 0.032498
0.000000 0.516395 0.045995
0.043954 0.514354 0.043954
0.197182 0.510782 0.040382
0.350411 0.507211 0.036811
0.503639 0.503639 0.033239
0.656867 0.500067 0.029667
0.810096 0.496496 0.026096
0.963324 0.492924 0.022524
1.000000 0.490883 0.020483
0.000000 0.661180 0.033980
0.031939 0.659139 0.031939
0.185167 0.655567 0.028367
0.338395 0.651995 0.024795
0.491624 0.648424 0.021224
0.644852 0.644852 0.017652
0.798080 0.641280 0.014080
0.951308 0.637708 0.010508
1.000000 0.635668 0.008468
0.000000 0.805964 0.021964
0.019923 0.803923 0.019923
0.173152 0.800352 0.016352
0.326380 0.796780 0.012780
0.479608 0.793208 0.009208
0.632836 0.789636 0.005636
0.786065 0.786065 0.002065
0.939293 0.782493 0.000000
1.000000 0.780452 0.000000
0.000000 0.950749 0.009949
0.007908 0.948708 0.007908
0.161136 0.945136 0.004336
0.314364 0.941564 0.000764
0.467593 0.937993 0.000000
0.620821 0.934421 0.000000
0.774049 0.930849 0.000000
0.927278 0.927278 0.000000
1.000000 0.925237 0.000000
0.000000 1.000000 0.003083
0.001042 1.000000 0.001042
0.154270 1.000000 0.000000
0.307499 1.000000 0.000000
0.460727 1.000000 0.000000
0.613955 1.000000 0.000000
0.767184 1.000000 0.000000
0.920412 1.000000 0.000000
1.000000 1.000000 0.000000
0.000000 0.000000 0.244494
0.085653 0.000000 0.242453
0.238881 0.000000 0.238881
0.392110 0.000000 0.235310
0.545338 0.000000 0.231738
0.698566 0.000000 0.228166
0.851795 0.000000 0.224595
1.000000 0.000000 0.221023
1.000000 0.000000 0.218982
0.000000 0.080828 0.237628
0.078787 0.078787 0.235587
0.232015 0.075215 0.232015
0.385244 0.071644 0.228444
0.538472 0.068072 0.224872
0.691700 0.064500 0.221300
0.844929 0.060929 0.217729
0.998157 0.057357 0.214157
1.000000 0.055316 0.212116
0.000000 0.225613 0.225613
0.066772 0.223572 0.223572
0.220000 0.220000 0.220000
0.373228 0.216428 0.216428
0.526457 0.212857 0.212857
0.679685 0.209285 0.209285
0.832913 0.205713 0.205713
0.986142 0.202142 0.202142
1.000000 0.200101 0.200101
0.000000 0.370397 0.213597
0.054756 0.368356 0.211556
0.207985 0.364785 0.207985
0.361213 0.361213 0.204413
0.514441 0.357641 0.200841
0.667670 0.354070 0.197270
0.820898 0.350498 0.193698
0.974126 0.346926 0.190126
1.000000 0.344885 0.188085
0.000000 0.515182 0.201582
0.042741 0.513141 0.199541
0.195969 0.509569 0.195969
0.349198 0.505998 0.192398
0.502426 0.502426 0.188826
0.655654 0.498854 0.185254
0.808883 0.495283 0.181683
0.962111 0.491711 0.178111
1.000000 0.489670 0.176070
0.000000 0.659967 0.189567
0.030726 0.657926 0.187526
0.183954 0.654354 0.183954
0.337182 0.650782 0.180382
0.490411 0.647211 0.176811
0.643639 0.643639 0.173239
0.796867 0.640067 0.169667
0.950096 0.636496 0.166096
1.000000 0.634455 0.164055
0.000000 0.804751 0.177551
0.018710 0.802710 0.175510
0.171939 0.799139 0.171939
0.325167 0.795567 0.168367
0.478395 0.791995 0.164795
0.631624 0.788424 0.161224
0.784852 0.784852 0.157652
0.938080 0.781280 0.154080
1.000000 0.779239 0.152039
0.000000 0.949536 0.165536
0.006695 0.947495 0.163495
0.159923 0.943923 0.159923
0.313152 0.940352 0.156352
0.466380 0.936780 0.152780
0.619608 0.933208 0.149208
0.772836 0.929636 0.145636
0.926065 0.926065 0.142065
1.000000 0.924024 0.140024
0.000000 1.000000 0.158670
0.000000 1.000000 0.156629
0.153057 1.000000 0.153057
0.306286 1.000000 0.149486
0.459514 1.000000 0.145914
0.612742 1.000000 0.142342
0.765971 1.000000 0.138771
0.919199 1.000000 0.135199
1.000000 1.000000 0.133158
0.000000 0.000000 0.400081
0.084440 0.000000 0.398040
0.237668 0.000000 0.394468
0.390897 0.000000 0.390897
0.544125 0.000000 0.387325
0.697353 0.000000 0.383753
0.850582 0.000000 0.380182
1.000000 0.000000 0.376610
1.000000 0.000000 0.374569
0.000000 0.079615 0.393215
0.077574 0.077574 0.391174
0.230802 0.074002 0.387602
0.384031 0.070431 0.384031
0.537259 0.066859 0.380459
0.690487 0.063287 0.376887
0.843716 0.059716 0.373316
0.996944 0.056144 0.369744
1.000000 0.054103 0.367703
0.000000 0.224400 0.381200
0.065559 0.222359 0.379159
0.218787 0.218787 0.375587
0.372015 0.215215 0.372015
0.525244 0.211644 0.368444
0.678472 0.208072 0.364872
0.831700 0.204500 0.361300
0.984929 0.200929 0.357729
1.000000 0.198888 0.355688
0.000000 0.369184 0.369184
0.053543 0.367143 0.367143
0.206772 0.363572 0.363572
0.360000 0.360000 0.360000
0.513228 0.356428 0.356428
0.666457 0.352857 0.352857
0.819685 0.349285 0.349285
0.972913 0.345713 0.345713
1.000000 0.343672 0.343672
0.000000 0.513969 0.357169
0.041528 0.511928 0.355128
0.194756 0.508356 0.351556
0.347985 0.504785 0.347985
0.501213 0.501213 0.344413
0.654441 0.497641 0.340841
0.807670 0.494070 0.337270
0.960898 0.490498 0.333698
1.000000 0.488457 0.331657
0.000000 0.658754 0.345154
0.029513 0.656713 0.343113
0.182741 0.653141 0.339541
0.335969 0.649569 0.335969
0.489198 0.645998 0.332398
0.642426 0.642426 0.328826
0.795654 0.638854 0.325254
0.948883 0.635283 0.321683
1.000000 0.633242 0.319642
0.000000 0.803538 0.333138
0.017497 0.801497 0.331097
0.170726 0.797926 0.327526
0.323954 0.794354 0.323954
0.477182 0.790782 0.320382
0.630411 0.787211 0.316811
0.783639 0.783639 0.313239
0.936867 0.780067 0.309667
1.000000 0.778026 0.307626
0.000000 0.948323 0.321123
0.005482 0.946282 0.319082
0.158710 0.942710 0.315510
0.311939 0.939139 0.311939
0.465167 0.935567 0.308367
0.618395 0.931995 0.304795
0.771624 0.928424 0.301224
0.924852 0.924852 0.297652
1.000000 0.922811 0.295611
0.000000 1.000000 0.314257
0.000000 1.000000 0.312216
0.151844 1.000000 0.308644
0.305073 1.000000 0.305073
0.458301 1.000000 0.301501
0.611529 1.000000 0.297929
0.764758 1.000000 0.294358
0.917986 1.000000 0.290786
1.000000 1.000000 0.288745
0.000000 0.000000 0.555668
0.083227 0.000000 0.553627
0.236455 0.000000 0.550055
0.389684 0.000000 0.546484
0.542912 0.000000 0.542912
0.696140 0.000000 0.539340
0.849369 0.000000 0.535769
1.000000 0.000000 0.532197
1.000000 0.000000 0.530156
0.000000 0.078402 0.548802
0.076361 0.076361 0.546761
0.229589 0.072789 0.543189
0.382818 0.069218 0.539618
0.536046 0.065646 0.536046
0.689274 0.062074 0.532474
0.842503 0.058503 0.528903
0.995731 0.054931 0.525331
1.000000 0.052890 0.523290
0.000000 0.223187 0.536787
0.064346 0.221146 0.534746
0.217574 0.217574 0.531174
0.370802 0.214002 0.527602
0.524031 0.210431 0.524031
0.677259 0.206859 0.520459
0.830487 0.203287 0.516887
0.983716 0.199716 0.513316
1.000000 0.197675 0.511275
0.000000 0.367971 0.524771
0.052330 0.365930 0.522730
0.205559 0.362359 0.519159
0.358787 0.358787 0.515587
0.512015 0.355215 0.512015
0.665244 0.351644 0.508444
0.818472 0.348072 0.504872
0.971700 0.344500 0.501300
1.000000 0.342459 0.499259
0.000000 0.512756 0.512756
0.040315 0.510715 0.510715
0.193543 0.507143 0.507143
0.346772 0.503572 0.503572
0.500000 0.500000 0.500000
0.653228 0.496428 0.496428
0.806457 0.492857 0.492857
0.959685 0.489285 0.489285
1.000000 0.487244 0.487244
0.000000 0.657541 0.500741
0.028300 0.655500 0.498700
0.181528 0.651928 0.495128
0.334756 0.648356 0.491556
0.487985 0.644785 0.487985
0.641213 0.641213 0.484413
0.794441 0.637641 0.480841
0.947670 0.634070 0.477270
1.000000 0.632029 0.475229
0.000000 0.802325 0.488725
0.016284 0.800284 0.486684
0.169513 0.796713 0.483113
0.322741 0.793141 0.479541
0.475969 0.789569 0.475969
0.629198 0.785998 0.472398
0.782426 0.782426 0.468826
0.935654 0.778854 0.465254
1.000000 0.776813 0.463213
0.000000 0.947110 0.476710
0.004269 0.945069 0.474669
0.157497 0.941497 0.471097
0.310726 0.937926 0.467526
0.463954 0.934354 0.463954
0.617182 0.930782 0.460382
0.770411 0.927211 0.456811
0.923639 0.923639 0.453239
1.000000 0.921598 0.451198
0.000000 1.000000 0.469844
0.000000 1.000000 0.467803
0.150631 1.000000 0.464231
0.303860 1.000000 0.460660
0.457088 1.000000 0.457088
0.610316 1.000000 0.453516
0.763545 1.000000 0.449945
0.916773 1.000000 0.446373
1.000000 1.000000 0.444332
0.000000 0.000000 0.711255
0.082014 0.000000 0.709214
0.235242 0.000000 0.705642
0.388471 0.000000 0.702071
0.541699 0.000000 0.698499
0.694927 0.000000 0.694927
0.848156 0.000000 0.691356
1.000000 0.000000 0.687784
1.000000 0.000000 0.685743
0.000000 0.077189 0.704389
0.075148 0.075148 0.702348
0.228376 0.071576 0.698776
0.381605 0.068005 0.695205
0.534833 0.064433 0.691633
0.688061 0.060861 0.688061
0.841290 0.057290 0.684490
0.994518 0.053718 0.680918
1.000000 0.051677 0.678877
0.000000 0.221974 0.692374
0.063133 0.219933 0.690333
0.216361 0.216361 0.686761
0.369589 0.212789 0.683189
0.522818 0.209218 0.679618
0.676046 0.205646 0.676046
0.829274 0.202074 0.672474
0.982503 0.198503 0.668903
1.000000 0.196462 0.666862
0.000000 0.366758 0.680358
0.051117 0.364717 0.678317
0.204346 0.361146 0.674746
0.357574 0.357574 0.671174
0.510802 0.354002 0.667602
0.664031 0.350431 0.664031
0.817259 0.346859 0.660459
0.970487 0.343287 0.656887
1.000000 0.341246 0.654846
0.000000 0.511543 0.668343
0.039102 0.509502 0.666302
0.192330 0.505930 0.662730
0.345559 0.502359 0.659159
0.498787 0.498787 0.655587
0.652015 0.495215 0.652015
0.805244 0.491644 0.648444
0.958472 0.488072 0.644872
1.000000 0.486031 0.642831
0.000000 0.656328 0.656328
0.027087 0.654287 0.654287
0.180315 0.650715 0.650715
0.333543 0.647143 0.647143
0.486772 0.643572 0.643572
0.640000 0.640000 0.640000
0.793228 0.636428 0.636428
0.946457 0.632857 0.632857
1.000000 0.630816 0.630816
0.000000 0.801112 0.644312
0.015071 0.799071 0.642271
0.168300 0.795500 0.638700
0.321528 0.791928 0.635128
0.474756 0.788356 0.631556
0.627985 0.784785 0.627985
0.781213 0.781213 0.624413
0.934441 0.777641 0.620841
1.000000 0.775600 0.618800
0.000000 0.945897 0.632297
0.003056 0.943856 0.630256
0.156284 0.940284 0.626684
0.309513 0.936713 0.623113
0.462741 0.933141 0.619541
0.615969 0.929569 0.615969
0.769198 0.925998 0.612398
0.922426 0.922426 0.608826
1.000000 0.920385 0.606785
0.000000 1.000000 0.625431
0.000000 1.000000 0.623390
0.149418 1.000000 0.619818
0.302647 1.000000 0.616247
0.455875 1.000000 0.612675
0.609103 1.000000 0.609103
0.762332 1.000000 0.605532
0.915560 1.000000 0.601960
1.000000 1.000000 0.599919
0.000000 0.000000 0.866842
0.080801 0.000000 0.864801
0.234029 0.000000 0.861229
0.387258 0.000000 0.857658
0.540486 0.000000 0.854086
0.693714 0.000000 0.850514
0.846943 0.000000 0.846943
1.000000 0.000000 0.843371
1.000000 0.000000 0.841330
0.000000 0.075976 0.859976
0.073935 0.073935 0.857935
0.227164 0.070364 0.854364
0.380392 0.066792 0.850792
0.533620 0.063220 0.847220
0.686848 0.059648 0.843648
0.840077 0.056077 0.840077
0.993305 0.052505 0.836505
1.000000 0.050464 0.834464
0.000000 0.220761 0.847961
0.061920 0.218720 0.845920
0.215148 0.215148 0.842348
0.368376 0.211576 0.838776
0.521605 0.208005 0.835205
0.674833 0.204433 0.831633
0.828061 0.200861 0.828061
0.981290 0.197290 0.824490
1.000000 0.195249 0.822449
0.000000 0.365545 0.835945
0.049904 0.363504 0.833904
0.203133 0.359933 0.830333
0.356361 0.356361 0.826761
0.509589 0.352789 0.823189
0.662818 0.349218 0.819618
0.816046 0.345646 0.816046
0.969274 0.342074 0.812474
1.000000 0.340033 0.810433
0.000000 0.510330 0.823930
0.037889 0.508289 0.821889
0.191117 0.504717 0.818317
0.344346 0.501146 0.814746
0.497574 0.497574 0.811174
0.650802 0.494002 0.807602
0.804031 0.490431 0.804031
0.957259 0.486859 0.800459
1.000000 0.484818 0.798418
0.000000 0.655115 0.811915
0.025874 0.653074 0.809874
0.179102 0.649502 0.806302
0.332330 0.645930 0.802730
0.485559 0.642359 0.799159
0.638787 0.638787 0.795587
0.792015 0.635215 0.792015
0.945244 0.631644 0.788444
1.000000 0.629603 0.786403
0.000000 0.799899 0.799899
0.013858 0.797858 0.797858
0.167087 0.794287 0.794287
0.320315 0.790715 0.790715
0.473543 0.787143 0.787143
0.626772 0.783572 0.783572
0.780000 0.780000 0.780000
0.933228 0.776428 0.776428
1.000000 0.774387 0.774387
0.000000 0.944684 0.787884
0.001843 0.942643 0.785843
0.155071 0.939071 0.782271
0.308300 0.935500 0.778700
0.461528 0.931928 0.775128
0.614756 0.928356 0.771556
0.767985 0.924785 0.767985
0.921213 0.921213 0.764413
1.000000 0.919172 0.762372
0.000000 1.000000 0.781018
0.000000 1.000000 0.778977
0.148205 1.000000 0.775405
0.301434 1.000000 0.771834
0.454662 1.000000 0.768262
0.607890 1.000000 0.764690
0.761119 1.000000 0.761119
0.914347 1.000000 0.757547
1.000000 1.000000 0.755506
0.000000 0.000000 1.000000
0.079588 0.000000 1.000000
0.232816 0.000000 1.000000
0.386045 0.000000 1.000000
0.539273 0.000000 1.000000
0.692501 0.000000 1.000000
0.845730 0.000000 1.000000
0.998958 0.000000 0.998958
1.000000 0.000000 0.996917
0.000000 0.074763 1.000000
0.072722 0.072722 1.000000
0.225951 0.069151 1.000000
0.379179 0.065579 1.000000
0.532407 0.062007 1.000000
0.685636 0.058436 0.999236
0.838864 0.054864 0.995664
0.992092 0.051292 0.992092
1.000000 0.049251 0.990051
0.000000 0.219548 1.000000
0.060707 0.217507 1.000000
0.213935 0.213935 0.997935
0.367164 0.210364 0.994364
0.520392 0.206792 0.990792
0.673620 0.203220 0.987220
0.826848 0.199648 0.983648
0.980077 0.196077 0.980077
1.000000 0.194036 0.978036
0.000000 0.364332 0.991532
0.048692 0.362292 0.989492
0.201920 0.358720 0.985920
0.355148 0.355148 0.982348
0.508376 0.351576 0.978776
0.661605 0.348005 0.975205
0.814833 0.344433 0.971633
0.968061 0.340861 0.968061
1.000000 0.338820 0.966020
0.000000 0.509117 0.979517
0.036676 0.507076 0.977476
0.189904 0.503504 0.973904
0.343133 0.499933 0.970333
0.496361 0.496361 0.966761
0.649589 0.492789 0.963189
0.802818 0.489218 0.959618
0.956046 0.485646 0.956046
1.000000 0.483605 0.954005
0.000000 0.653902 0.967502
0.024661 0.651861 0.965461
0.177889 0.648289 0.961889
0.331117 0.644717 0.958317
0.484346 0.641146 0.954746
0.637574 0.637574 0.951174
0.790802 0.634002 0.947602
0.944031 0.630431 0.944031
1.000000 0.628390 0.941990
0.000000 0.798686 0.955486
0.012645 0.796645 0.953445
0.165874 0.793074 0.949874
0.319102 0.789502 0.946302
0.472330 0.785930 0.942730
0.625559 0.782359 0.939159
0.778787 0.778787 0.935587
0.932015 0.775215 0.932015
1.000000 0.773174 0.929974
0.000000 0.943471 0.943471
0.000630 0.941430 0.941430
0.153858 0.937858 0.937858
0.307087 0.934287 0.934287
0.460315 0.930715 0.930715
0.613543 0.927143 0.927143
0.766772 0.923572 0.923572
0.920000 0.920000 0.920000
1.000000 0.917959 0.917959
0.000000 1.000000 0.936605
0.000000 1.000000 0.934564
0.146992 1.000000 0.930992
0.300221 1.000000 0.927421
0.453449 1.000000 0.923849
0.606677 1.000000 0.920277
0.759906 1.000000 0.916706
0.913134 1.000000 0.913134
1.000000 1.000000 0.911093
0.000000 0.000000 1.000000
0.078895 0.000000 1.000000
0.232123 0.000000 1.000000
0.385352 0.000000 1.000000
0.538580 0.000000 1.000000
0.691808 0.000000 1.000000
0.845037 0.000000 1.000000
0.998265 0.000000 1.000000
1.000000 0.000000 1.000000
0.000000 0.074070 1.000000
0.072029 0.072029 1.000000
0.225257 0.068457 1.000000
0.378486 0.064886 1.000000
0.531714 0.061314 1.000000
0.684942 0.057742 1.000000
0.838171 0.054171 1.000000
0.991399 0.050599 1.000000
1.000000 0.048558 1.000000
0.000000 0.218855 1.000000
0.060014 0.216814 1.000000
0.213242 0.213242 1.000000
0.366470 0.209670 1.000000
0.519699 0.206099 1.000000
0.672927 0.202527 1.000000
0.826155 0.198955 1.000000
0.979384 0.195384 1.000000
1.000000 0.193343 1.000000
0.000000 0.363639 1.000000
0.047998 0.361598 1.000000
0.201227 0.358027 1.000000
0.354455 0.354455 1.000000
0.507683 0.350883 1.000000
0.660912 0.347312 1.000000
0.814140 0.343740 1.000000
0.967368 0.340168 1.000000
1.000000 0.338127 1.000000
0.000000 0.508424 1.000000
0.035983 0.506383 1.000000
0.189211 0.502811 1.000000
0.342440 0.499240 1.000000
0.495668 0.495668 1.000000
0.648896 0.492096 1.000000
0.802125 0.488525 1.000000
0.955353 0.484953 1.000000
1.000000 0.482912 1.000000
0.000000 0.653209 1.000000
0.023968 0.651168 1.000000
0.177196 0.647596 1.000000
0.330424 0.644024 1.000000
0.483653 0.640453 1.000000
0.636881 0.636881 1.000000
0.790109 0.633309 1.000000
0.943338 0.629738 1.000000
1.000000 0.627697 1.000000
0.000000 0.797993 1.000000
0.011952 0.795952 1.000000
0.165181 0.792381 1.000000
0.318409 0.788809 1.000000
0.471637 0.785237 1.000000
0.624866 0.781666 1.000000
0.778094 0.778094 1.000000
0.931322 0.774522 1.000000
1.000000 0.772481 1.000000
0.000000 0.942778 1.000000
0.000000 0.940737 1.000000
0.153165 0.937165 1.000000
0.306394 0.933594 1.000000
0.459622 0.930022 1.000000
0.612850 0.926450 1.000000
0.766079 0.922879 1.000000
0.919307 0.919307 1.000000
1.000000 0.917266 1.000000
0.000000 1.000000 1.000000
0.000000 1.000000 1.000000
0.146299 1.000000 1.000000
0.299528 1.000000 1.000000
0.452756 1.000000 1.000000
0.605984 1.000000 1.000000
0.759213 1.000000 1.000000
0.912441 1.000000 1.000000
1.000000 1.000000 1.000000
