assets/.cache/luts/pop.cube
# Generated by aivideomaker post-grade.mjs — preset "pop"
LUT_3D_SIZE 5
DOMAIN_MIN 0.0 0.0 0.0
DOMAIN_MAX 1.0 1.0 1.0
0.000000 0.000000 0.000000
0.240787 0.000000 0.000000
0.547244 0.000000 0.000000
0.853701 0.000000 0.000000
1.000000 0.000000 0.000000
0.000000 0.227519 0.000000
0.221906 0.221906 0.000000
0.528363 0.214763 0.000000
0.834819 0.207619 0.000000
1.000000 0.202007 0.000000
0.000000 0.517088 0.000000
0.197875 0.511475 0.000000
0.504332 0.504332 0.000000
0.810789 0.497189 0.000000
1.000000 0.491576 0.000000
0.000000 0.806657 0.000000
0.173845 0.801045 0.000000
0.480301 0.793901 0.000000
0.786758 0.786758 0.000000
1.000000 0.781145 0.000000
0.000000 1.000000 0.000000
0.154963 1.000000 0.000000
0.461420 1.000000 0.000000
0.767877 1.000000 0.000000
1.000000 1.000000 0.000000
0.000000 0.000000 0.244494
0.238881 0.000000 0.238881
0.545338 0.000000 0.231738
0.851795 0.000000 0.224595
1.000000 0.000000 0.218982
0.000000 0.225613 0.225613
0.220000 0.220000 0.220000
0.526457 0.212857 0.212857
0.832913 0.205713 0.205713
1.000000 0.200101 0.200101
0.000000 0.515182 0.201582
0.195969 0.509569 0.195969
0.502426 0.502426 0.188826
0.808883 0.495283 0.181683
1.000000 0.489670 0.176070
0.000000 0.804751 0.177551
0.171939 0.799139 0.171939
0.478395 0.791995 0.164795
0.784852 0.784852 0.157652
1.000000 0.779239 0.152039
0.000000 1.000000 0.158670
0.153057 1.000000 0.153057
0.459514 1.000000 0.145914
0.765971 1.000000 0.138771
1.000000 1.000000 0.133158
0.000000 0.000000 0.555668
0.236455 0.000000 0.550055
0.542912 0.000000 0.542912
0.849369 0.000000 0.535769
1.000000 0.000000 0.530156
0.000000 0.223187 0.536787
0.217574 0.217574 0.531174
0.524031 0.210431 0.524031
0.830487 0.203287 0.516887
1.000000 0.197675 0.511275
0.000000 0.512756 0.512756
0.193543 0.507143 0.507143
0.500000 0.500000 0.500000
0.806457 0.492857 0.492857
1.000000 0.487244 0.487244
0.000000 0.802325 0.488725
0.169513 0.796713 0.483113
0.475969 0.789569 0.475969
0.782426 0.782426 0.468826
1.000000 0.776813 0.463213
0.000000 1.000000 0.469844
0.150631 1.000000 0.464231
0.457088 1.000000 0.457088
0.763545 1.000000 0.449945
1.000000 1.000000 0.444332
0.000000 0.000000 0.866842
0.234029 0.000000 0.861229
0.540486 0.000000 0.854086
0.846943 0.000000 0.846943
1.000000 0.000000 0.841330
0.000000 0.220761 0.847961
0.215148 0.215148 0.842348
0.521605 0.208005 0.835205
0.828061 0.200861 0.828061
1.000000 0.195249 0.822449
0.000000 0.510330 0.823930
0.191117 0.504717 0.818317
0.497574 0.497574 0.811174
0.804031 0.490431 0.804031
1.000000 0.484818 0.798418
0.000000 0.799899 0.799899
0.167087 0.794287 0.794287
0.473543 0.787143 0.787143
0.780000 0.780000 0.780000
1.000000 0.774387 0.774387
0.000000 1.000000 0.781018
0.148205 1.000000 0.775405
0.454662 1.000000 0.768262
0.761119 1.000000 0.761119
1.000000 1.000000 0.755506
0.000000 0.000000 1.000000
0.232123 0.000000 1.000000
0.538580 0.000000 1.000000
0.845037 0.000000 1.000000
1.000000 0.000000 1.000000
0.000000 0.218855 1.000000
0.213242 0.213242 1.000000
0.519699 0.206099 1.000000
0.826155 0.198955 1.000000
1.000000 0.193343 1.000000
0.000000 0.508424 1.000000
0.189211 0.502811 1.000000
0.495668 0.495668 1.000000
0.802125 0.488525 1.000000
1.000000 0.482912 1.000000
0.000000 0.797993 1.000000
0.165181 0.792381 1.000000
0.471637 0.785237 1.000000
0.778094 0.778094 1.000000
1.000000 0.772481 1.000000
0.000000 1.000000 1.000000
0.146299 1.000000 1.000000
0.452756 1.000000 1.000000
0.759213 1.000000 1.000000
1.000000 1.000000 1.000000
