assets/.cache/luts/teal-orange.cube
# Generated by aivideomaker post-grade.mjs — preset "teal-orange"
LUT_3D_SIZE 17
DOMAIN_MIN 0.0 0.0 0.0
DOMAIN_MAX 1.0 1.0 1.0
0.000000 0.073200 0.111700
0.014040 0.070581 0.108262
0.059853 0.067962 0.104825
0.106689 0.065342 0.101387
0.154548 0.062723 0.097949
0.203430 0.060104 0.094511
0.253336 0.057485 0.091074
0.304265 0.054865 0.087636
0.356216 0.052246 0.084198
0.409191 0.049627 0.080760
0.463189 0.047008 0.077323
0.518211 0.044388 0.073885
0.574255 0.041769 0.070447
0.631322 0.039150 0.067009
0.689413 0.036531 0.063572
0.748527 0.033912 0.060134
0.808664 0.031292 0.056696
0.000000 0.110797 0.100135
0.014384 0.108690 0.096697
0.061918 0.106582 0.093260
0.110475 0.104474 0.089822
0.160055 0.102367 0.086384
0.210658 0.100259 0.082947
0.262285 0.098151 0.079509
0.314934 0.096044 0.076071
0.368607 0.093936 0.072633
0.423303 0.091828 0.069196
0.479022 0.089721 0.065758
0.535764 0.087613 0.062320
0.593529 0.085505 0.058882
0.652318 0.083398 0.055445
0.712129 0.081290 0.052007
0.772964 0.079182 0.048569
0.834822 0.077075 0.045131
0.000000 0.151836 0.088570
0.014728 0.150240 0.085133
0.063983 0.148644 0.081695
0.114261 0.147048 0.078257
0.165562 0.145452 0.074819
0.217886 0.143856 0.071382
0.271234 0.142260 0.067944
0.325604 0.140664 0.064506
0.380998 0.139068 0.061068
0.437415 0.137471 0.057631
0.494855 0.135875 0.054193
0.553318 0.134279 0.050755
0.612804 0.132683 0.047318
0.673313 0.131087 0.043880
0.734846 0.129491 0.040442
0.797402 0.127895 0.037004
0.860980 0.126299 0.033567
0.000000 0.196317 0.077006
0.015072 0.195233 0.073568
0.066048 0.194148 0.070130
0.118047 0.193064 0.066692
0.171069 0.191979 0.063255
0.225114 0.190895 0.059817
0.280183 0.189810 0.056379
0.336274 0.188726 0.052941
0.393389 0.187641 0.049504
0.451527 0.186557 0.046066
0.510688 0.185472 0.042628
0.570872 0.184387 0.039190
0.632079 0.183303 0.035753
0.694309 0.182218 0.032315
0.757563 0.181134 0.028877
0.821839 0.180049 0.025440
0.887139 0.178965 0.022002
0.000000 0.244240 0.065441
0.015417 0.243667 0.062003
0.068113 0.243094 0.058565
0.121833 0.242521 0.055128
0.176576 0.241948 0.051690
0.232342 0.241375 0.048252
0.289132 0.240802 0.044814
0.346944 0.240229 0.041377
0.405780 0.239656 0.037939
0.465638 0.239084 0.034501
0.526520 0.238511 0.031063
0.588425 0.237938 0.027626
0.651353 0.237365 0.024188
0.715305 0.236792 0.020750
0.780279 0.236219 0.017312
0.846277 0.235646 0.013875
0.913297 0.235073 0.010437
0.000000 0.295605 0.053876
0.015761 0.295544 0.050438
0.070178 0.295482 0.047001
0.125619 0.295421 0.043563
0.182083 0.295359 0.040125
0.239570 0.295298 0.036687
0.298081 0.295237 0.033250
0.357614 0.295175 0.029812
0.418171 0.295114 0.026374
0.479750 0.295052 0.022936
0.542353 0.294991 0.019499
0.605979 0.294930 0.016061
0.670628 0.294868 0.012623
0.736300 0.294807 0.009185
0.802996 0.294745 0.005748
0.870714 0.294684 0.002310
0.939456 0.294623 0.000000
0.000000 0.350412 0.042311
0.016105 0.350862 0.038874
0.072244 0.351312 0.035436
0.129405 0.351762 0.031998
0.187590 0.352212 0.028560
0.246798 0.352663 0.025123
0.307030 0.353113 0.021685
0.368284 0.353563 0.018247
0.430561 0.354013 0.014809
0.493862 0.354463 0.011372
0.558186 0.354913 0.007934
0.623533 0.355364 0.004496
0.689903 0.355814 0.001058
0.757296 0.356264 0.000000
0.825712 0.356714 0.000000
0.895152 0.357164 0.000000
0.965614 0.357615 0.000000
0.000000 0.408660 0.030747
0.016449 0.409622 0.027309
0.074309 0.410584 0.023871
0.133191 0.411545 0.020433
0.193097 0.412507 0.016996
0.254026 0.413469 0.013558
0.315979 0.414431 0.010120
0.378954 0.415392 0.006682
0.442952 0.416354 0.003245
0.507974 0.417316 0.000000
0.574019 0.418278 0.000000
0.641086 0.419239 0.000000
0.709177 0.420201 0.000000
0.778291 0.421163 0.000000
0.848429 0.422125 0.000000
0.920449 0.424464 0.000000
0.992574 0.426912 0.000000
0.000000 0.470351 0.019182
0.016793 0.471824 0.015744
0.076374 0.473297 0.012306
0.136978 0.474771 0.008869
0.198604 0.476244 0.005431
0.261254 0.477717 0.001993
0.324927 0.479191 0.000000
0.389624 0.480664 0.000000
0.455343 0.482137 0.000000
0.522086 0.483611 0.000000
0.589851 0.485084 0.000000
0.659435 0.486853 0.000000
0.731412 0.489356 0.000000
0.803394 0.491838 0.000000
0.875359 0.494299 0.000000
0.947283 0.496739 0.000000
1.000000 0.499158 0.000000
0.000000 0.535483 0.007617
0.017138 0.537468 0.004179
0.078439 0.539453 0.000741
0.140764 0.541438 0.000000
0.204111 0.543423 0.000000
0.268482 0.545408 0.000000
0.333876 0.547392 0.000000
0.400294 0.549377 0.000000
0.470438 0.551737 0.000000
0.542270 0.554277 0.000000
0.614124 0.556788 0.000000
0.685976 0.559271 0.000000
0.757806 0.561726 0.000000
0.829591 0.564152 0.000000
0.901309 0.566550 0.000000
0.972938 0.568919 0.000000
1.000000 0.571259 0.000000
0.000000 0.604057 0.000000
0.017482 0.606554 0.000000
0.080504 0.609050 0.000000
0.144550 0.611547 0.000000
0.209687 0.614045 0.000000
0.281329 0.616652 0.000000
0.353031 0.619223 0.000000
0.424771 0.621759 0.000000
0.496527 0.624258 0.000000
0.568277 0.626722 0.000000
0.639998 0.629150 0.000000
0.711670 0.631543 0.000000
0.783269 0.633899 0.000000
0.854774 0.636220 0.000000
0.922377 0.637105 0.000000
0.986682 0.637065 0.000000
1.000000 0.637026 0.000000
0.000000 0.676074 0.000000
0.020606 0.678955 0.000000
0.092116 0.681595 0.000000
0.163704 0.684193 0.000000
0.235345 0.686747 0.000000
0.307020 0.689258 0.000000
0.378705 0.691726 0.000000
0.450378 0.694150 0.000000
0.522018 0.696532 0.000000
0.593602 0.698870 0.000000
0.665109 0.701165 0.000000
0.731841 0.700722 0.000000
0.797446 0.700190 0.000000
0.862064 0.699657 0.000000
0.925696 0.699124 0.000000
0.988341 0.698591 0.000000
1.000000 0.698059 0.000000
0.000000 0.749182 0.000000
0.045855 0.751750 0.000000
0.117463 0.754267 0.000000
0.189098 0.756733 0.000000
0.260738 0.759149 0.000000
0.332362 0.761514 0.000000
0.403946 0.763829 0.000000
0.474490 0.765007 0.000000
0.542382 0.763981 0.000000
0.609287 0.762955 0.000000
0.675206 0.761929 0.000000
0.740138 0.760903 0.000000
0.804084 0.759876 0.000000
0.867043 0.758850 0.000000
0.929015 0.757824 0.000000
0.990001 0.756798 0.000000
1.000000 0.755772 0.000000
0.000000 0.821742 0.000000
0.071088 0.824143 0.000000
0.142710 0.826487 0.000000
0.214310 0.828774 0.000000
0.284808 0.828399 0.000000
0.354001 0.826880 0.000000
0.422206 0.825360 0.000000
0.489425 0.823841 0.000000
0.555658 0.822322 0.000000
0.620904 0.820802 0.000000
0.685163 0.819283 0.000000
0.748436 0.817764 0.000000
0.810722 0.816244 0.000000
0.872021 0.814725 0.000000
0.932334 0.813206 0.000000
0.991660 0.811686 0.000000
1.000000 0.810167 0.000000
0.024725 0.893445 0.000000
0.096204 0.891432 0.000000
0.166697 0.889420 0.000000
0.236203 0.887407 0.000000
0.304722 0.885394 0.000000
0.372255 0.883382 0.000000
0.438801 0.881369 0.000000
0.504361 0.879356 0.000000
0.568934 0.877344 0.000000
0.632520 0.875331 0.000000
0.695120 0.873318 0.000000
0.756733 0.871306 0.000000
0.817360 0.869293 0.000000
0.877000 0.867281 0.000000
0.935653 0.865268 0.000000
0.993320 0.863255 0.000000
1.000000 0.861243 0.000000
0.051277 0.949095 0.000000
0.121097 0.946589 0.000000
0.189930 0.944083 0.000000
0.257776 0.941577 0.000000
0.324636 0.939071 0.000000
0.390509 0.936565 0.000000
0.455396 0.934059 0.000000
0.519296 0.931553 0.000000
0.582210 0.929047 0.000000
0.644136 0.926541 0.000000
0.705077 0.924035 0.000000
0.765030 0.921529 0.000000
0.823998 0.919023 0.000000
0.881978 0.916517 0.000000
0.938972 0.914011 0.000000
0.994979 0.911505 0.000000
1.000000 0.908999 0.000000
0.077829 1.000000 0.000000
0.145989 0.998426 0.000000
0.213163 0.995427 0.000000
0.279350 0.992427 0.000000
0.344550 0.989428 0.000000
0.408764 0.986429 0.000000
0.471991 0.983430 0.000000
0.534232 0.980430 0.000000
0.595486 0.977431 0.000000
0.655753 0.974432 0.000000
0.715034 0.971433 0.000000
0.773328 0.968433 0.000000
0.830636 0.965434 0.000000
0.886957 0.962435 0.000000
0.942291 0.959435 0.000000
0.996639 0.956436 0.000000
1.000000 0.953437 0.000000
0.000000 0.072310 0.155394
0.014075 0.069691 0.152468
0.060061 0.067072 0.149541
0.107071 0.064453 0.146615
0.155104 0.061834 0.143689
0.204160 0.059214 0.140763
0.254239 0.056595 0.137837
0.305342 0.053976 0.134911
0.357467 0.051357 0.131984
0.410616 0.048737 0.129058
0.464788 0.046118 0.126132
0.519983 0.043499 0.123206
0.576201 0.040880 0.120280
0.633442 0.038260 0.117354
0.691706 0.035641 0.114427
0.750994 0.033022 0.111501
0.811304 0.030403 0.108575
0.000000 0.110081 0.145550
0.014419 0.107974 0.142624
0.062126 0.105866 0.139698
0.110857 0.103758 0.136771
0.160611 0.101651 0.133845
0.211388 0.099543 0.130919
0.263188 0.097435 0.127993
0.316012 0.095328 0.125067
0.369858 0.093220 0.122141
0.424728 0.091112 0.119214
0.480620 0.089005 0.116288
0.537536 0.086897 0.113362
0.595475 0.084789 0.110436
0.654437 0.082682 0.107510
0.714423 0.080574 0.104583
0.775431 0.078466 0.101657
0.837463 0.076359 0.098731
0.000000 0.151294 0.135706
0.014763 0.149698 0.132780
0.064192 0.148102 0.129854
0.114643 0.146506 0.126928
0.166118 0.144910 0.124001
0.218616 0.143314 0.121075
0.272137 0.141718 0.118149
0.326681 0.140122 0.115223
0.382249 0.138525 0.112297
0.438839 0.136929 0.109371
0.496453 0.135333 0.106444
0.555090 0.133737 0.103518
0.614750 0.132141 0.100592
0.675433 0.130545 0.097666
0.737139 0.128949 0.094740
0.799869 0.127353 0.091813
0.863621 0.125757 0.088887
0.000000 0.195949 0.125862
0.015107 0.194864 0.122936
0.066257 0.193780 0.120010
0.118429 0.192695 0.117084
0.171625 0.191611 0.114158
0.225844 0.190526 0.111231
0.281086 0.189442 0.108305
0.337351 0.188357 0.105379
0.394640 0.187273 0.102453
0.452951 0.186188 0.099527
0.512286 0.185104 0.096601
0.572644 0.184019 0.093674
0.634025 0.182935 0.090748
0.696429 0.181850 0.087822
0.759856 0.180766 0.084896
0.824306 0.179681 0.081970
0.889780 0.178597 0.079043
0.000000 0.244046 0.116018
0.015451 0.243473 0.113092
0.068322 0.242900 0.110166
0.122215 0.242327 0.107240
0.177132 0.241754 0.104314
0.233072 0.241181 0.101388
0.290035 0.240608 0.098461
0.348021 0.240035 0.095535
0.407031 0.239462 0.092609
0.467063 0.238889 0.089683
0.528119 0.238316 0.086757
0.590197 0.237743 0.083831
0.653299 0.237170 0.080904
0.717424 0.236597 0.077978
0.782572 0.236024 0.075052
0.848744 0.235451 0.072126
0.915938 0.234878 0.069200
0.000000 0.295584 0.106175
0.015796 0.295523 0.103248
0.070387 0.295461 0.100322
0.126002 0.295400 0.097396
0.182639 0.295339 0.094470
0.240300 0.295277 0.091544
0.298984 0.295216 0.088618
0.358691 0.295154 0.085691
0.419421 0.295093 0.082765
0.481175 0.295032 0.079839
0.543951 0.294970 0.076913
0.607751 0.294909 0.073987
0.672574 0.294847 0.071061
0.738420 0.294786 0.068134
0.805289 0.294725 0.065208
0.873181 0.294663 0.062282
0.942096 0.294602 0.059356
0.000000 0.350564 0.096331
0.016140 0.351015 0.093405
0.072452 0.351465 0.090478
0.129788 0.351915 0.087552
0.188146 0.352365 0.084626
0.247528 0.352815 0.081700
0.307933 0.353266 0.078774
0.369361 0.353716 0.075848
0.431812 0.354166 0.072921
0.495287 0.354616 0.069995
0.559784 0.355066 0.067069
0.625305 0.355516 0.064143
0.691848 0.355967 0.061217
0.759415 0.356417 0.058291
0.828005 0.356867 0.055364
0.897619 0.357317 0.052438
0.968255 0.357767 0.049512
0.000000 0.408987 0.086487
0.016484 0.409949 0.083561
0.074517 0.410910 0.080635
0.133574 0.411872 0.077708
0.193653 0.412834 0.074782
0.254756 0.413796 0.071856
0.316882 0.414757 0.068930
0.380031 0.415719 0.066004
0.444203 0.416681 0.063078
0.509398 0.417643 0.060151
0.575617 0.418604 0.057225
0.642858 0.419566 0.054299
0.711123 0.420528 0.051373
0.780411 0.421490 0.048447
0.851092 0.422840 0.045711
0.923212 0.425297 0.043546
0.995314 0.427740 0.041424
0.000000 0.470851 0.076643
0.016828 0.472324 0.073717
0.076582 0.473798 0.070791
0.137360 0.475271 0.067865
0.199160 0.476744 0.064938
0.261984 0.478218 0.062012
0.325831 0.479691 0.059086
0.390701 0.481164 0.056160
0.456594 0.482638 0.053234
0.523510 0.484111 0.050308
0.591450 0.485584 0.047381
0.662153 0.487705 0.044918
0.734119 0.490201 0.042769
0.806085 0.492676 0.040662
0.878028 0.495130 0.038596
0.949927 0.497563 0.036573
1.000000 0.499975 0.034592
0.000000 0.536157 0.066799
0.017172 0.538142 0.063873
0.078648 0.540127 0.060947
0.141146 0.542112 0.058021
0.204667 0.544097 0.055095
0.269212 0.546082 0.052168
0.334780 0.548066 0.049242
0.401371 0.550051 0.046316
0.473099 0.552602 0.044131
0.544926 0.555133 0.041997
0.616770 0.557635 0.039905
0.688608 0.560108 0.037855
0.760419 0.562553 0.035847
0.832179 0.564969 0.033881
0.903868 0.567357 0.031957
0.975462 0.569717 0.030075
1.000000 0.572048 0.028236
0.000000 0.604905 0.056955
0.017516 0.607402 0.054029
0.080713 0.609898 0.051103
0.144932 0.612395 0.048177
0.212289 0.614934 0.045509
0.283938 0.617529 0.043349
0.355642 0.620088 0.041230
0.427379 0.622612 0.039154
0.499127 0.625099 0.037119
0.570864 0.627551 0.035127
0.642568 0.629967 0.033176
0.714216 0.632347 0.031267
0.785788 0.634691 0.029401
0.857260 0.637000 0.027576
0.922712 0.637092 0.028349
0.986849 0.637052 0.029277
1.000000 0.637013 0.030204
0.000000 0.677095 0.047112
0.023156 0.679856 0.044718
0.094680 0.682482 0.042573
0.166275 0.685065 0.040469
0.237921 0.687604 0.038408
0.309594 0.690101 0.036389
0.381272 0.692554 0.034412
0.452934 0.694964 0.032476
0.524558 0.697331 0.030583
0.596121 0.699655 0.028732
0.666254 0.701074 0.027760
0.732678 0.700541 0.028687
0.798116 0.700009 0.029614
0.862567 0.699476 0.030542
0.926031 0.698943 0.031469
0.988509 0.698410 0.032397
1.000000 0.697878 0.033324
0.000000 0.750060 0.039714
0.048403 0.752610 0.037668
0.120016 0.755110 0.035664
0.191652 0.757559 0.033702
0.263287 0.759958 0.031782
0.334900 0.762306 0.029904
0.406470 0.764604 0.028068
0.475998 0.764658 0.028097
0.543722 0.763632 0.029025
0.610460 0.762606 0.029952
0.676211 0.761580 0.030879
0.740976 0.760554 0.031807
0.804754 0.759528 0.032734
0.867545 0.758502 0.033662
0.929350 0.757476 0.034589
0.990168 0.756450 0.035517
1.000000 0.755424 0.036444
0.002011 0.822564 0.032998
0.073635 0.824946 0.031094
0.145253 0.827270 0.029231
0.216807 0.829403 0.027508
0.286819 0.827883 0.028435
0.355843 0.826364 0.029362
0.423882 0.824844 0.030290
0.490933 0.823325 0.031217
0.556998 0.821806 0.032145
0.622076 0.820286 0.033072
0.686168 0.818767 0.033999
0.749273 0.817248 0.034927
0.811392 0.815728 0.035854
0.872524 0.814209 0.036782
0.932669 0.812690 0.037709
0.991828 0.811170 0.038636
1.000000 0.809651 0.039564
0.027406 0.892762 0.027845
0.098717 0.890749 0.028773
0.169042 0.888736 0.029700
0.238381 0.886724 0.030627
0.306733 0.884711 0.031555
0.374098 0.882698 0.032482
0.440476 0.880686 0.033410
0.505868 0.878673 0.034337
0.570274 0.876660 0.035264
0.633693 0.874648 0.036192
0.696125 0.872635 0.037119
0.757571 0.870622 0.038047
0.818030 0.868610 0.038974
0.877502 0.866597 0.039901
0.935988 0.864584 0.040829
0.993487 0.862572 0.041756
1.000000 0.860559 0.042684
0.053957 0.948244 0.030965
0.123610 0.945738 0.031892
0.192275 0.943232 0.032820
0.259954 0.940726 0.033747
0.326646 0.938220 0.034675
0.392352 0.935714 0.035602
0.457071 0.933208 0.036529
0.520804 0.930702 0.037457
0.583550 0.928196 0.038384
0.645309 0.925690 0.039312
0.706082 0.923184 0.040239
0.765868 0.920678 0.041166
0.824668 0.918172 0.042094
0.882481 0.915666 0.043021
0.939307 0.913160 0.043949
0.995147 0.910654 0.044876
1.000000 0.908148 0.045803
0.080509 1.000000 0.034085
0.148502 0.997407 0.035012
0.215508 0.994408 0.035940
0.281527 0.991409 0.036867
0.346560 0.988409 0.037794
0.410607 0.985410 0.038722
0.473666 0.982411 0.039649
0.535739 0.979412 0.040577
0.596826 0.976412 0.041504
0.656926 0.973413 0.042431
0.716039 0.970414 0.043359
0.774166 0.967415 0.044286
0.831306 0.964415 0.045214
0.887459 0.961416 0.046141
0.942626 0.958417 0.047068
0.996806 0.955418 0.047996
1.000000 0.952418 0.048923
0.000000 0.071421 0.199435
0.014109 0.068802 0.197020
0.060270 0.066183 0.194606
0.107453 0.063563 0.192191
0.155660 0.060944 0.189777
0.204890 0.058325 0.187362
0.255143 0.055706 0.184947
0.306419 0.053086 0.182533
0.358718 0.050467 0.180118
0.412040 0.047848 0.177704
0.466386 0.045229 0.175289
0.521755 0.042609 0.172874
0.578146 0.039990 0.170460
0.635561 0.037371 0.168045
0.693999 0.034752 0.165631
0.753461 0.032133 0.163216
0.813945 0.029513 0.160801
0.000000 0.109366 0.191312
0.014453 0.107258 0.188897
0.062335 0.105150 0.186483
0.111239 0.103043 0.184068
0.161167 0.100935 0.181654
0.212118 0.098827 0.179239
0.264092 0.096720 0.176824
0.317089 0.094612 0.174410
0.371109 0.092504 0.171995
0.426152 0.090397 0.169581
0.482219 0.088289 0.167166
0.539308 0.086181 0.164751
0.597421 0.084074 0.162337
0.656557 0.081966 0.159922
0.716716 0.079858 0.157508
0.777898 0.077751 0.155093
0.840103 0.075643 0.152678
0.000000 0.150752 0.183189
0.014798 0.149156 0.180775
0.064400 0.147560 0.178360
0.115025 0.145964 0.175945
0.166674 0.144368 0.173531
0.219346 0.142772 0.171116
0.273041 0.141176 0.168702
0.327759 0.139580 0.166287
0.383500 0.137983 0.163872
0.440264 0.136387 0.161458
0.498051 0.134791 0.159043
0.556862 0.133195 0.156629
0.616696 0.131599 0.154214
0.677553 0.130003 0.151799
0.739432 0.128407 0.149385
0.802336 0.126811 0.146970
0.866262 0.125215 0.144556
0.000000 0.195581 0.175066
0.015142 0.194496 0.172652
0.066465 0.193412 0.170237
0.118812 0.192327 0.167823
0.172181 0.191243 0.165408
0.226574 0.190158 0.162993
0.281990 0.189073 0.160579
0.338429 0.187989 0.158164
0.395891 0.186904 0.155749
0.454376 0.185820 0.153335
0.513884 0.184735 0.150920
0.574416 0.183651 0.148506
0.635970 0.182566 0.146091
0.698548 0.181482 0.143676
0.762149 0.180397 0.141262
0.826773 0.179313 0.138847
0.892420 0.178228 0.136433
0.000000 0.243851 0.166943
0.015486 0.243278 0.164529
0.068530 0.242705 0.162114
0.122598 0.242132 0.159700
0.177688 0.241559 0.157285
0.233802 0.240986 0.154870
0.290939 0.240413 0.152456
0.349098 0.239840 0.150041
0.408281 0.239267 0.147627
0.468488 0.238694 0.145212
0.529717 0.238121 0.142797
0.591969 0.237548 0.140383
0.655245 0.236976 0.137968
0.719544 0.236403 0.135554
0.784866 0.235830 0.133139
0.851211 0.235257 0.130724
0.918579 0.234684 0.128310
0.000000 0.295563 0.158821
0.015830 0.295502 0.156406
0.070595 0.295440 0.153991
0.126384 0.295379 0.151577
0.183195 0.295318 0.149162
0.241030 0.295256 0.146748
0.299887 0.295195 0.144333
0.359768 0.295134 0.141918
0.420672 0.295072 0.139504
0.482599 0.295011 0.137089
0.545550 0.294949 0.134675
0.609523 0.294888 0.132260
0.674520 0.294827 0.129845
0.740539 0.294765 0.127431
0.807582 0.294704 0.125016
0.875648 0.294642 0.122601
0.944737 0.294581 0.120187
0.000000 0.350717 0.150698
0.016174 0.351168 0.148283
0.072661 0.351618 0.145868
0.130170 0.352068 0.143454
0.188702 0.352518 0.141039
0.248258 0.352968 0.138625
0.308836 0.353418 0.136210
0.370438 0.353869 0.133795
0.433063 0.354319 0.131381
0.496711 0.354769 0.128966
0.561382 0.355219 0.126552
0.627077 0.355669 0.124137
0.693794 0.356120 0.121722
0.761535 0.356570 0.119308
0.830299 0.357020 0.116893
0.900086 0.357470 0.114479
0.970896 0.357920 0.112064
0.000000 0.409313 0.142575
0.016519 0.410275 0.140160
0.074726 0.411237 0.137746
0.133956 0.412199 0.135331
0.194209 0.413160 0.132916
0.255486 0.414122 0.130502
0.317785 0.415084 0.128087
0.381108 0.416046 0.125673
0.445454 0.417007 0.123258
0.510823 0.417969 0.120843
0.577215 0.418931 0.118429
0.644630 0.419893 0.116014
0.713069 0.420854 0.113600
0.782530 0.421816 0.111185
0.853861 0.423676 0.108939
0.925962 0.426128 0.106833
0.998041 0.428566 0.104763
0.000000 0.471351 0.134452
0.016863 0.472825 0.132037
0.076791 0.474298 0.129623
0.137742 0.475771 0.127208
0.199716 0.477245 0.124793
0.262714 0.478718 0.122379
0.326734 0.480191 0.119964
0.391778 0.481665 0.117550
0.457845 0.483138 0.115135
0.524935 0.484611 0.112720
0.593048 0.486085 0.110306
0.664862 0.488555 0.108168
0.736816 0.491044 0.106075
0.808765 0.493512 0.104017
0.880686 0.495959 0.101994
0.952558 0.498384 0.100005
1.000000 0.500789 0.098051
0.000000 0.536831 0.126329
0.017207 0.538816 0.123914
0.078856 0.540801 0.121500
0.141528 0.542786 0.119085
0.205223 0.544771 0.116671
0.269942 0.546756 0.114256
0.335683 0.548741 0.111841
0.403965 0.550916 0.109517
0.475754 0.553465 0.107402
0.547576 0.555986 0.105322
0.619409 0.558478 0.103277
0.691232 0.560942 0.101266
0.763022 0.563377 0.099289
0.834757 0.565784 0.097348
0.906415 0.568162 0.095441
0.977975 0.570512 0.093569
1.000000 0.572833 0.091731
0.000000 0.605753 0.118206
0.017551 0.608249 0.115792
0.080921 0.610746 0.113377
0.145314 0.613242 0.110962
0.214889 0.615819 0.108743
0.286544 0.618402 0.106641
0.358249 0.620949 0.104573
0.429983 0.623460 0.102540
0.501722 0.625936 0.100542
0.573445 0.628375 0.098579
0.645130 0.630779 0.096650
0.716754 0.633147 0.094755
0.788297 0.635479 0.092896
0.858091 0.637118 0.091707
0.923047 0.637078 0.092141
0.987017 0.637039 0.092575
1.000000 0.636999 0.093009
0.000000 0.678099 0.110098
0.025705 0.680753 0.107974
0.097242 0.683364 0.105884
0.168846 0.685932 0.103829
0.240494 0.688457 0.101809
0.312164 0.690939 0.099823
0.383836 0.693377 0.097872
0.455485 0.695773 0.095956
0.527092 0.698125 0.094074
0.598633 0.700434 0.092227
0.667259 0.700893 0.091865
0.733516 0.700361 0.092299
0.798786 0.699828 0.092733
0.863069 0.699295 0.093167
0.926366 0.698762 0.093601
0.988676 0.698229 0.094035
1.000000 0.697697 0.094469
0.000000 0.750931 0.103090
0.050951 0.753465 0.101082
0.122569 0.755947 0.099109
0.194203 0.758380 0.097171
0.265833 0.760761 0.095267
0.337436 0.763092 0.093398
0.408962 0.765336 0.091589
0.477505 0.764310 0.092023
0.545062 0.763284 0.092457
0.611633 0.762258 0.092891
0.677216 0.761232 0.093325
0.741813 0.760206 0.093759
0.805424 0.759180 0.094193
0.868048 0.758153 0.094627
0.929685 0.757127 0.095061
0.990336 0.756101 0.095496
1.000000 0.755075 0.095930
0.004556 0.823379 0.096473
0.076181 0.825742 0.094582
0.147796 0.828047 0.092726
0.218985 0.828887 0.091747
0.288829 0.827367 0.092181
0.357686 0.825848 0.092615
0.425557 0.824329 0.093049
0.492441 0.822809 0.093483
0.558338 0.821290 0.093917
0.623249 0.819770 0.094351
0.687173 0.818251 0.094785
0.750111 0.816732 0.095220
0.812062 0.815212 0.095654
0.873026 0.813693 0.096088
0.933004 0.812174 0.096522
0.991995 0.810654 0.096956
1.000000 0.809135 0.097390
0.030086 0.892078 0.091905
0.101230 0.890065 0.092339
0.171388 0.888053 0.092773
0.240559 0.886040 0.093207
0.308743 0.884027 0.093641
0.375941 0.882015 0.094075
0.442152 0.880002 0.094509
0.507376 0.877989 0.094943
0.571614 0.875977 0.095378
0.634865 0.873964 0.095812
0.697130 0.871951 0.096246
0.758408 0.869939 0.096680
0.818700 0.867926 0.097114
0.878005 0.865914 0.097548
0.936323 0.863901 0.097982
0.993655 0.861888 0.098416
1.000000 0.859876 0.098850
0.056638 0.947392 0.093365
0.126122 0.944887 0.093799
0.194620 0.942381 0.094233
0.262132 0.939875 0.094667
0.328657 0.937369 0.095101
0.394195 0.934863 0.095536
0.458747 0.932357 0.095970
0.522312 0.929851 0.096404
0.584890 0.927345 0.096838
0.646482 0.924839 0.097272
0.707087 0.922333 0.097706
0.766706 0.919827 0.098140
0.825338 0.917321 0.098574
0.882983 0.914815 0.099008
0.939642 0.912309 0.099443
0.995314 0.909803 0.099877
1.000000 0.907297 0.100311
0.083190 0.999388 0.094825
0.151015 0.996389 0.095260
0.217853 0.993389 0.095694
0.283705 0.990390 0.096128
0.348571 0.987391 0.096562
0.412449 0.984392 0.096996
0.475341 0.981392 0.097430
0.537247 0.978393 0.097864
0.598166 0.975394 0.098298
0.658098 0.972395 0.098732
0.717044 0.969395 0.099166
0.775003 0.966396 0.099601
0.831976 0.963397 0.100035
0.887962 0.960398 0.100469
0.942961 0.957398 0.100903
0.996974 0.954399 0.101337
1.000000 0.951400 0.101771
0.000000 0.070531 0.243824
0.014144 0.067912 0.241921
0.060478 0.065293 0.240018
0.107835 0.062674 0.238115
0.156216 0.060055 0.236212
0.205619 0.057435 0.234308
0.256046 0.054816 0.232405
0.307496 0.052197 0.230502
0.359969 0.049578 0.228599
0.413465 0.046958 0.226696
0.467984 0.044339 0.224793
0.523527 0.041720 0.222890
0.580092 0.039101 0.220987
0.637681 0.036481 0.219084
0.696293 0.033862 0.217181
0.755928 0.031243 0.215278
0.816586 0.028624 0.213375
