assets/.cache/luts/teal-orange.cube
# Generated by aivideomaker post-grade.mjs — preset "teal-orange"
LUT_3D_SIZE 5
DOMAIN_MIN 0.0 0.0 0.0
DOMAIN_MAX 1.0 1.0 1.0
0.000000 0.073200 0.111700
0.154548 0.062723 0.097949
0.356216 0.052246 0.084198
0.574255 0.041769 0.070447
0.808664 0.031292 0.056696
0.000000 0.244240 0.065441
0.176576 0.241948 0.051690
0.405780 0.239656 0.037939
0.651353 0.237365 0.024188
0.913297 0.235073 0.010437
0.000000 0.470351 0.019182
0.198604 0.476244 0.005431
0.455343 0.482137 0.000000
0.731412 0.489356 0.000000
1.000000 0.499158 0.000000
0.000000 0.749182 0.000000
0.260738 0.759149 0.000000
0.542382 0.763981 0.000000
0.804084 0.759876 0.000000
1.000000 0.755772 0.000000
0.077829 1.000000 0.000000
0.344550 0.989428 0.000000
0.595486 0.977431 0.000000
0.830636 0.965434 0.000000
1.000000 0.953437 0.000000
0.000000 0.069642 0.288560
0.156772 0.059165 0.282994
0.361220 0.048688 0.277428
0.582038 0.038211 0.271862
0.819226 0.027734 0.266296
0.000000 0.243462 0.269836
0.178800 0.241170 0.264270
0.410783 0.238878 0.258704
0.659137 0.236586 0.253138
0.923860 0.234295 0.247572
0.000000 0.472352 0.251112
0.200828 0.478245 0.245546
0.460347 0.484139 0.239980
0.742182 0.492723 0.232776
1.000000 0.502410 0.224996
0.000000 0.752658 0.229907
0.270917 0.762350 0.222242
0.547743 0.762587 0.218316
0.806764 0.758483 0.216106
1.000000 0.754378 0.213896
0.088550 0.997351 0.215301
0.352591 0.985354 0.213091
0.600846 0.973357 0.210882
0.833316 0.961360 0.208672
1.000000 0.949363 0.206462
0.000000 0.066084 0.470979
0.158996 0.055607 0.473598
0.366223 0.045130 0.476217
0.589821 0.034653 0.478837
0.829789 0.024176 0.481456
0.000000 0.242684 0.479790
0.181024 0.240392 0.482410
0.415787 0.238100 0.485029
0.666920 0.235808 0.487648
0.934423 0.233516 0.490267
0.000000 0.474353 0.488602
0.203052 0.480247 0.491221
0.465350 0.486140 0.493840
0.752800 0.496050 0.486458
1.000000 0.505623 0.478926
0.000000 0.756040 0.483733
0.280977 0.765297 0.476116
0.553104 0.761193 0.466014
0.809445 0.757089 0.455911
1.000000 0.752985 0.445808
0.099272 0.993277 0.452233
0.360632 0.981280 0.442130
0.606207 0.969283 0.432027
0.835996 0.957286 0.421925
1.000000 0.945288 0.411822
0.000000 0.062526 0.658958
0.161219 0.052049 0.669762
0.371227 0.041572 0.680566
0.597604 0.031095 0.691371
0.840352 0.020618 0.702175
0.000000 0.241905 0.695304
0.183248 0.239613 0.706108
0.420790 0.237322 0.716913
0.674703 0.235030 0.727717
0.944986 0.232738 0.738521
0.000000 0.476355 0.731651
0.205276 0.482248 0.742455
0.476003 0.489544 0.747360
0.763267 0.499339 0.740377
1.000000 0.508796 0.732774
0.004796 0.759329 0.737681
0.289018 0.763903 0.726346
0.558464 0.759799 0.708351
0.812125 0.755695 0.690355
1.000000 0.751591 0.672359
0.109994 0.989202 0.683803
0.368674 0.977205 0.665808
0.611568 0.965208 0.647812
0.838677 0.953211 0.629817
1.000000 0.941214 0.611821
0.000000 0.058968 0.852496
0.163443 0.048491 0.871485
0.376230 0.038014 0.890474
0.605387 0.027537 0.909464
0.850915 0.017060 0.928453
0.000000 0.241127 0.916377
0.185471 0.238835 0.935367
0.425794 0.236543 0.954356
0.682486 0.234251 0.973346
0.955549 0.231960 0.992335
0.000000 0.478356 0.980259
0.207499 0.484249 0.999248
0.486559 0.492908 1.000000
0.773581 0.502589 0.994371
1.000000 0.510150 0.980640
0.014984 0.762525 0.991587
0.297060 0.762510 0.971215
0.563825 0.758405 0.945327
0.814805 0.754301 0.919438
1.000000 0.750197 0.893550
0.120716 0.985128 0.910013
0.376715 0.973131 0.884125
0.616929 0.961134 0.858237
0.841357 0.949137 0.832348
1.000000 0.937140 0.806460
