assets/.cache/luts/teal-orange.cube
# Generated by aivideomaker post-grade.mjs — preset "teal-orange"
LUT_3D_SIZE 9
DOMAIN_MIN 0.0 0.0 0.0
DOMAIN_MAX 1.0 1.0 1.0
0.000000 0.073200 0.111700
0.059853 0.067962 0.104825
0.154548 0.062723 0.097949
0.253336 0.057485 0.091074
0.356216 0.052246 0.084198
0.463189 0.047008 0.077323
0.574255 0.041769 0.070447
0.689413 0.036531 0.063572
0.808664 0.031292 0.056696
0.000000 0.151836 0.088570
0.063983 0.148644 0.081695
0.165562 0.145452 0.074819
0.271234 0.142260 0.067944
0.380998 0.139068 0.061068
0.494855 0.135875 0.054193
0.612804 0.132683 0.047318
0.734846 0.129491 0.040442
0.860980 0.126299 0.033567
0.000000 0.244240 0.065441
0.068113 0.243094 0.058565
0.176576 0.241948 0.051690
0.289132 0.240802 0.044814
0.405780 0.239656 0.037939
0.526520 0.238511 0.031063
0.651353 0.237365 0.024188
0.780279 0.236219 0.017312
0.913297 0.235073 0.010437
0.000000 0.350412 0.042311
0.072244 0.351312 0.035436
0.187590 0.352212 0.028560
0.307030 0.353113 0.021685
0.430561 0.354013 0.014809
0.558186 0.354913 0.007934
0.689903 0.355814 0.001058
0.825712 0.356714 0.000000
0.965614 0.357615 0.000000
0.000000 0.470351 0.019182
0.076374 0.473297 0.012306
0.198604 0.476244 0.005431
0.324927 0.479191 0.000000
0.455343 0.482137 0.000000
0.589851 0.485084 0.000000
0.731412 0.489356 0.000000
0.875359 0.494299 0.000000
1.000000 0.499158 0.000000
0.000000 0.604057 0.000000
0.080504 0.609050 0.000000
0.209687 0.614045 0.000000
0.353031 0.619223 0.000000
0.496527 0.624258 0.000000
0.639998 0.629150 0.000000
0.783269 0.633899 0.000000
0.922377 0.637105 0.000000
1.000000 0.637026 0.000000
0.000000 0.749182 0.000000
0.117463 0.754267 0.000000
0.260738 0.759149 0.000000
0.403946 0.763829 0.000000
0.542382 0.763981 0.000000
0.675206 0.761929 0.000000
0.804084 0.759876 0.000000
0.929015 0.757824 0.000000
1.000000 0.755772 0.000000
0.024725 0.893445 0.000000
0.166697 0.889420 0.000000
0.304722 0.885394 0.000000
0.438801 0.881369 0.000000
0.568934 0.877344 0.000000
0.695120 0.873318 0.000000
0.817360 0.869293 0.000000
0.935653 0.865268 0.000000
1.000000 0.861243 0.000000
0.077829 1.000000 0.000000
0.213163 0.995427 0.000000
0.344550 0.989428 0.000000
0.471991 0.983430 0.000000
0.595486 0.977431 0.000000
0.715034 0.971433 0.000000
0.830636 0.965434 0.000000
0.942291 0.959435 0.000000
1.000000 0.953437 0.000000
0.000000 0.071421 0.199435
0.060270 0.066183 0.194606
0.155660 0.060944 0.189777
0.255143 0.055706 0.184947
0.358718 0.050467 0.180118
0.466386 0.045229 0.175289
0.578146 0.039990 0.170460
0.693999 0.034752 0.165631
0.813945 0.029513 0.160801
0.000000 0.150752 0.183189
0.064400 0.147560 0.178360
0.166674 0.144368 0.173531
0.273041 0.141176 0.168702
0.383500 0.137983 0.163872
0.498051 0.134791 0.159043
0.616696 0.131599 0.154214
0.739432 0.128407 0.149385
0.866262 0.125215 0.144556
0.000000 0.243851 0.166943
0.068530 0.242705 0.162114
0.177688 0.241559 0.157285
0.290939 0.240413 0.152456
0.408281 0.239267 0.147627
0.529717 0.238121 0.142797
0.655245 0.236976 0.137968
0.784866 0.235830 0.133139
0.918579 0.234684 0.128310
0.000000 0.350717 0.150698
0.072661 0.351618 0.145868
0.188702 0.352518 0.141039
0.308836 0.353418 0.136210
0.433063 0.354319 0.131381
0.561382 0.355219 0.126552
0.693794 0.356120 0.121722
0.830299 0.357020 0.116893
0.970896 0.357920 0.112064
0.000000 0.471351 0.134452
0.076791 0.474298 0.129623
0.199716 0.477245 0.124793
0.326734 0.480191 0.119964
0.457845 0.483138 0.115135
0.593048 0.486085 0.110306
0.736816 0.491044 0.106075
0.880686 0.495959 0.101994
1.000000 0.500789 0.098051
0.000000 0.605753 0.118206
0.080921 0.610746 0.113377
0.214889 0.615819 0.108743
0.358249 0.620949 0.104573
0.501722 0.625936 0.100542
0.645130 0.630779 0.096650
0.788297 0.635479 0.092896
0.923047 0.637078 0.092141
1.000000 0.636999 0.093009
0.000000 0.750931 0.103090
0.122569 0.755947 0.099109
0.265833 0.760761 0.095267
0.408962 0.765336 0.091589
0.545062 0.763284 0.092457
0.677216 0.761232 0.093325
0.805424 0.759180 0.094193
0.929685 0.757127 0.095061
1.000000 0.755075 0.095930
0.030086 0.892078 0.091905
0.171388 0.888053 0.092773
0.308743 0.884027 0.093641
0.442152 0.880002 0.094509
0.571614 0.875977 0.095378
0.697130 0.871951 0.096246
0.818700 0.867926 0.097114
0.936323 0.863901 0.097982
1.000000 0.859876 0.098850
0.083190 0.999388 0.094825
0.217853 0.993389 0.095694
0.348571 0.987391 0.096562
0.475341 0.981392 0.097430
0.598166 0.975394 0.098298
0.717044 0.969395 0.099166
0.831976 0.963397 0.100035
0.942961 0.957398 0.100903
1.000000 0.951400 0.101771
0.000000 0.069642 0.288560
0.060687 0.064404 0.285777
0.156772 0.059165 0.282994
0.256950 0.053927 0.280211
0.361220 0.048688 0.277428
0.469583 0.043450 0.274645
0.582038 0.038211 0.271862
0.698586 0.032973 0.269079
0.819226 0.027734 0.266296
0.000000 0.149668 0.279198
0.064817 0.146476 0.276415
0.167786 0.143284 0.273632
0.274847 0.140092 0.270849
0.386001 0.136899 0.268066
0.501248 0.133707 0.265283
0.620587 0.130515 0.262500
0.744019 0.127323 0.259717
0.871543 0.124131 0.256934
0.000000 0.243462 0.269836
0.068947 0.242316 0.267053
0.178800 0.241170 0.264270
0.292745 0.240024 0.261487
0.410783 0.238878 0.258704
0.532914 0.237732 0.255921
0.659137 0.236586 0.253138
0.789452 0.235440 0.250355
0.923860 0.234295 0.247572
0.000000 0.351023 0.260474
0.073078 0.351924 0.257691
0.189814 0.352824 0.254908
0.310643 0.353724 0.252125
0.435565 0.354625 0.249342
0.564579 0.355525 0.246559
0.697686 0.356425 0.243776
0.834885 0.357326 0.240993
0.976177 0.358226 0.238210
0.000000 0.472352 0.251112
0.077208 0.475299 0.248329
0.200828 0.478245 0.245546
0.328541 0.481192 0.242763
0.460347 0.484139 0.239980
0.598333 0.487752 0.236787
0.742182 0.492723 0.232776
0.885969 0.497609 0.228846
1.000000 0.502410 0.224996
0.000000 0.607449 0.241750
0.081338 0.612442 0.238967
0.220080 0.617578 0.235317
0.363450 0.622659 0.231336
0.506892 0.627597 0.227435
0.650230 0.632391 0.223614
0.793287 0.637043 0.219872
0.923717 0.637051 0.218718
1.000000 0.636972 0.217613
0.000000 0.752658 0.229907
0.127670 0.757605 0.226035
0.270917 0.762350 0.222242
0.412312 0.764639 0.219421
0.547743 0.762587 0.218316
0.679227 0.760535 0.217211
0.806764 0.758483 0.216106
0.930355 0.756431 0.215001
1.000000 0.754378 0.213896
0.035447 0.890711 0.219019
0.176078 0.886686 0.217914
0.312763 0.882660 0.216809
0.445502 0.878635 0.215704
0.574295 0.874610 0.214599
0.699140 0.870584 0.213494
0.820040 0.866559 0.212389
0.936993 0.862534 0.211284
1.000000 0.858509 0.210179
0.088550 0.997351 0.215301
0.222544 0.991352 0.214196
0.352591 0.985354 0.213091
0.478692 0.979355 0.211986
0.600846 0.973357 0.210882
0.719054 0.967358 0.209777
0.833316 0.961360 0.208672
0.943631 0.955361 0.207567
1.000000 0.949363 0.206462
0.000000 0.067863 0.379074
0.061104 0.062625 0.378338
0.157884 0.057386 0.377601
0.258756 0.052148 0.376865
0.363722 0.046909 0.376128
0.472779 0.041671 0.375391
0.585930 0.036432 0.374655
0.703172 0.031194 0.373918
0.824508 0.025955 0.373181
0.000000 0.148584 0.376596
0.065234 0.145392 0.375860
0.168898 0.142200 0.375123
0.276654 0.139007 0.374386
0.388503 0.135815 0.373650
0.504445 0.132623 0.372913
0.624479 0.129431 0.372176
0.748606 0.126239 0.371440
0.876825 0.123047 0.370703
0.000000 0.243073 0.374118
0.069364 0.241927 0.373381
0.179912 0.240781 0.372645
0.294552 0.239635 0.371908
0.413285 0.238489 0.371172
0.536110 0.237343 0.370435
0.663028 0.236197 0.369698
0.794039 0.235051 0.368962
0.929142 0.233905 0.368225
0.000000 0.351329 0.371640
0.073494 0.352229 0.370903
0.190926 0.353130 0.370167
0.312450 0.354030 0.369430
0.438067 0.354930 0.368693
0.567776 0.355831 0.367957
0.701577 0.356731 0.367220
0.839472 0.357631 0.366483
0.981750 0.359695 0.364821
0.000000 0.473353 0.369162
0.077625 0.476299 0.368425
0.201940 0.479246 0.367688
0.330348 0.482193 0.366952
0.462848 0.485139 0.366215
0.603711 0.489450 0.363417
0.747510 0.494391 0.359577
0.891208 0.499249 0.355759
1.000000 0.504021 0.351961
0.000000 0.609144 0.366684
0.082095 0.614143 0.365870
0.225260 0.619319 0.362017
0.368633 0.624352 0.358185
0.512038 0.629241 0.354373
0.655299 0.633987 0.350583
0.794828 0.637103 0.347034
0.924387 0.637025 0.343956
1.000000 0.636946 0.340877
0.000000 0.754360 0.356795
0.132767 0.759239 0.352991
0.275990 0.763916 0.349209
0.415663 0.763942 0.345913
0.550423 0.761890 0.342835
0.681237 0.759838 0.339757
0.808104 0.757786 0.336679
0.931025 0.755734 0.333600
1.000000 0.753681 0.330522
0.040808 0.889344 0.344792
0.180769 0.885319 0.341714
0.316784 0.881293 0.338636
0.448853 0.877268 0.335558
0.576975 0.873243 0.332480
0.701151 0.869217 0.329402
0.821380 0.865192 0.326323
0.937663 0.861167 0.323245
1.000000 0.857142 0.320167
0.093911 0.995314 0.334437
0.227235 0.989315 0.331359
0.356612 0.983317 0.328281
0.482042 0.977318 0.325203
0.603527 0.971320 0.322125
0.721065 0.965321 0.319046
0.834656 0.959323 0.315968
0.944301 0.953324 0.312890
1.000000 0.947326 0.309812
0.000000 0.066084 0.470979
0.061521 0.060846 0.472289
0.158996 0.055607 0.473598
0.260563 0.050369 0.474908
0.366223 0.045130 0.476217
0.475976 0.039892 0.477527
0.589821 0.034653 0.478837
0.707759 0.029415 0.480146
0.829789 0.024176 0.481456
0.000000 0.147500 0.475385
0.065651 0.144308 0.476694
0.170010 0.141116 0.478004
0.278461 0.137923 0.479313
0.391005 0.134731 0.480623
0.507641 0.131539 0.481933
0.628370 0.128347 0.483242
0.753192 0.125155 0.484552
0.882106 0.121962 0.485862
0.000000 0.242684 0.479790
0.069781 0.241538 0.481100
0.181024 0.240392 0.482410
0.296359 0.239246 0.483719
0.415787 0.238100 0.485029
0.539307 0.236954 0.486338
0.666920 0.235808 0.487648
0.798625 0.234662 0.488958
0.934423 0.233516 0.490267
0.000000 0.351635 0.484196
0.073911 0.352535 0.485506
0.192038 0.353435 0.486815
0.314257 0.354336 0.488125
0.440568 0.355236 0.489434
0.570972 0.356136 0.490744
0.705469 0.357037 0.492054
0.844058 0.357937 0.493363
0.987317 0.361330 0.491509
0.000000 0.474353 0.488602
0.078042 0.477300 0.489911
0.203052 0.480247 0.491221
0.332155 0.483193 0.492530
0.465350 0.486140 0.493840
0.609058 0.491138 0.490168
0.752800 0.496050 0.486458
0.896401 0.500879 0.482711
1.000000 0.505623 0.478926
0.000000 0.610840 0.493007
0.087228 0.615917 0.492507
0.230429 0.621044 0.488822
0.373799 0.626028 0.485098
0.517160 0.630869 0.481337
0.660337 0.635566 0.477539
0.796169 0.637077 0.472904
0.925058 0.636998 0.467853
1.000000 0.636919 0.462801
0.000000 0.756040 0.483733
0.137861 0.760850 0.479959
0.280977 0.765297 0.476116
0.419014 0.763245 0.471065
0.553104 0.761193 0.466014
0.683247 0.759141 0.460962
0.809445 0.757089 0.455911
0.931695 0.755037 0.450860
1.000000 0.752985 0.445808
0.046169 0.887977 0.469226
0.185460 0.883952 0.464175
0.320805 0.879926 0.459123
0.452203 0.875901 0.454072
0.579655 0.871876 0.449021
0.703161 0.867850 0.443969
0.822720 0.863825 0.438918
0.938333 0.859800 0.433866
1.000000 0.855774 0.428815
0.099272 0.993277 0.452233
0.231926 0.987278 0.447182
0.360632 0.981280 0.442130
0.485393 0.975281 0.437079
0.606207 0.969283 0.432027
0.723075 0.963284 0.426976
0.835996 0.957286 0.421925
0.944971 0.951287 0.416873
1.000000 0.945288 0.411822
0.000000 0.064305 0.564273
0.061938 0.059066 0.567629
0.160107 0.053828 0.570985
0.262370 0.048590 0.574341
0.368725 0.043351 0.577697
0.479173 0.038113 0.581053
0.593713 0.032874 0.584409
0.712345 0.027636 0.587765
0.835071 0.022397 0.591121
0.000000 0.146416 0.575563
0.066068 0.143224 0.578919
0.171122 0.140031 0.582275
0.280268 0.136839 0.585630
0.393507 0.133647 0.588986
0.510838 0.130455 0.592342
0.632262 0.127263 0.595698
0.757779 0.124071 0.599054
0.887388 0.120878 0.602410
0.000000 0.242294 0.586852
0.070198 0.241148 0.590208
0.182136 0.240003 0.593564
0.298166 0.238857 0.596920
0.418288 0.237711 0.600276
0.542504 0.236565 0.603632
0.670811 0.235419 0.606988
0.803212 0.234273 0.610343
0.939704 0.233127 0.613699
0.000000 0.351940 0.598142
0.074328 0.352841 0.601498
0.193150 0.353741 0.604853
0.316064 0.354642 0.608209
0.443070 0.355542 0.611565
0.574169 0.356442 0.614921
0.709361 0.357343 0.618277
0.848645 0.358243 0.621633
0.992833 0.362963 0.618311
0.000000 0.475354 0.609431
0.078459 0.478301 0.612787
0.204164 0.481247 0.616143
0.333961 0.484194 0.619499
0.470689 0.487847 0.620540
0.614373 0.492815 0.617017
0.758052 0.497700 0.613398
0.901550 0.502499 0.609682
1.000000 0.507214 0.605870
0.000000 0.612535 0.620721
0.092358 0.617674 0.619269
0.235588 0.622753 0.615711
0.378947 0.627688 0.612057
0.522257 0.632480 0.608306
0.665344 0.637129 0.604459
0.797509 0.637050 0.597434
0.925728 0.636971 0.590410
1.000000 0.636892 0.583385
0.000000 0.757696 0.610702
0.142950 0.762437 0.606916
0.284998 0.764600 0.601901
0.422364 0.762548 0.594877
0.555784 0.760496 0.587852
0.685258 0.758444 0.580828
0.810785 0.756392 0.573803
0.932366 0.754340 0.566779
1.000000 0.752288 0.559754
0.051529 0.886610 0.592319
0.190151 0.882585 0.585295
0.324825 0.878559 0.578270
0.455554 0.874534 0.571246
0.582336 0.870509 0.564221
0.705171 0.866483 0.557197
0.824061 0.862458 0.550172
0.939004 0.858433 0.543147
1.000000 0.854407 0.536123
0.104633 0.991239 0.568688
0.236616 0.985241 0.561664
0.364653 0.979242 0.554639
0.488744 0.973244 0.547615
0.608888 0.967245 0.540590
0.725085 0.961247 0.533565
0.837337 0.955248 0.526541
0.945641 0.949250 0.519516
1.000000 0.943251 0.512492
0.000000 0.062526 0.658958
0.062354 0.057287 0.664360
0.161219 0.052049 0.669762
0.264177 0.046811 0.675164
0.371227 0.041572 0.680566
0.482369 0.036334 0.685968
0.597604 0.031095 0.691371
0.716932 0.025857 0.696773
0.840352 0.020618 0.702175
0.000000 0.145332 0.677131
0.066485 0.142140 0.682533
0.172233 0.138947 0.687935
0.282075 0.135755 0.693337
0.396008 0.132563 0.698740
0.514035 0.129371 0.704142
0.636154 0.126179 0.709544
0.762365 0.122986 0.714946
0.892669 0.119794 0.720348
0.000000 0.241905 0.695304
0.070615 0.240759 0.700706
0.183248 0.239613 0.706108
0.299973 0.238467 0.711511
0.420790 0.237322 0.716913
0.545700 0.236176 0.722315
0.674703 0.235030 0.727717
0.807798 0.233884 0.733119
0.944986 0.232738 0.738521
0.000000 0.352246 0.713477
0.074745 0.353147 0.718879
0.194262 0.354047 0.724282
0.317870 0.354947 0.729684
0.445572 0.355848 0.735086
0.577366 0.356748 0.740488
0.713252 0.357648 0.745890
0.854121 0.359785 0.748564
0.998297 0.364593 0.745207
0.000000 0.476355 0.731651
0.078876 0.479301 0.737053
0.205276 0.482248 0.742455
0.335768 0.485195 0.747857
0.476003 0.489544 0.747360
0.619657 0.494484 0.743946
0.763267 0.499339 0.740377
0.906655 0.504110 0.736653
1.000000 0.508796 0.732774
0.000000 0.614242 0.749450
0.097483 0.619415 0.746135
0.240736 0.624445 0.742665
0.384077 0.629332 0.739039
0.527330 0.634075 0.735259
0.667354 0.637102 0.729622
0.798849 0.637023 0.720624
0.926398 0.636944 0.711626
1.000000 0.636865 0.702629
0.004796 0.759329 0.737681
0.148035 0.764002 0.733844
0.289018 0.763903 0.726346
0.425715 0.761851 0.717348
0.558464 0.759799 0.708351
0.687268 0.757747 0.699353
0.812125 0.755695 0.690355
0.933036 0.753643 0.681357
1.000000 0.751591 0.672359
0.056890 0.885243 0.714073
0.194841 0.881218 0.705075
0.328846 0.877192 0.696077
0.458904 0.873167 0.687079
0.585016 0.869142 0.678081
0.707182 0.865116 0.669084
0.825401 0.861091 0.660086
0.939674 0.857066 0.651088
1.000000 0.853040 0.642090
0.109994 0.989202 0.683803
0.241307 0.983204 0.674806
0.368674 0.977205 0.665808
0.492094 0.971207 0.656810
0.611568 0.965208 0.647812
0.727096 0.959210 0.638815
0.838677 0.953211 0.629817
0.946312 0.947213 0.620819
1.000000 0.941214 0.611821
0.000000 0.060747 0.755032
0.062771 0.055508 0.762480
0.162331 0.050270 0.769929
0.265984 0.045032 0.777377
0.373728 0.039793 0.784825
0.485566 0.034555 0.792274
0.601496 0.029316 0.799722
0.721518 0.024078 0.807171
0.845634 0.018839 0.814619
0.000000 0.144248 0.780089
0.066902 0.141056 0.787537
0.173345 0.137863 0.794986
0.283881 0.134671 0.802434
0.398510 0.131479 0.809882
0.517231 0.128287 0.817331
0.640045 0.125095 0.824779
0.766952 0.121902 0.832228
0.897950 0.118710 0.839676
0.000000 0.241516 0.805146
0.071032 0.240370 0.812594
0.184359 0.239224 0.820043
0.301779 0.238078 0.827491
0.423292 0.236932 0.834940
0.548897 0.235786 0.842388
0.678594 0.234641 0.849836
0.812385 0.233495 0.857285
0.950267 0.232349 0.864733
0.000000 0.352552 0.830203
0.075162 0.353452 0.837651
0.195373 0.354353 0.845100
0.319677 0.355253 0.852548
0.448074 0.356153 0.859997
0.580562 0.357054 0.867445
0.717144 0.357954 0.874893
0.859623 0.361421 0.875442
1.000000 0.366220 0.872175
0.000000 0.477356 0.855260
0.079293 0.480302 0.862708
0.206388 0.483249 0.870157
0.337767 0.486235 0.877408
0.481293 0.491231 0.874277
0.624911 0.496142 0.870933
0.768443 0.500969 0.867375
0.911714 0.505711 0.863603
1.000000 0.509507 0.857439
0.000000 0.616015 0.876293
0.102605 0.621139 0.873085
0.245873 0.626121 0.869662
0.389189 0.630959 0.866026
0.532379 0.635653 0.862177
0.669364 0.637075 0.853445
0.800189 0.636996 0.842474
0.927068 0.636917 0.831503
1.000000 0.636838 0.820532
0.009889 0.760938 0.864650
0.153066 0.765259 0.860421
0.293039 0.763207 0.849451
0.429065 0.761154 0.838480
0.561145 0.759102 0.827509
0.689278 0.757050 0.816538
0.813465 0.754998 0.805567
0.933706 0.752946 0.794596
1.000000 0.750894 0.783625
0.062251 0.883876 0.834485
0.199532 0.879851 0.823514
0.332867 0.875825 0.812544
0.462255 0.871800 0.801573
0.587697 0.867775 0.790602
0.709192 0.863749 0.779631
0.826741 0.859724 0.768660
0.940344 0.855699 0.757689
1.000000 0.851673 0.746718
0.115355 0.987165 0.797578
0.245998 0.981167 0.786607
0.372694 0.975168 0.775637
0.495445 0.969170 0.764666
0.614248 0.963171 0.753695
0.729106 0.957173 0.742724
0.840017 0.951174 0.731753
0.946982 0.945176 0.720782
1.000000 0.939177 0.709811
0.000000 0.058968 0.852496
0.063188 0.053729 0.861990
0.163443 0.048491 0.871485
0.267790 0.043253 0.880980
0.376230 0.038014 0.890474
0.488763 0.032776 0.899969
0.605387 0.027537 0.909464
0.726105 0.022299 0.918959
0.850915 0.017060 0.928453
0.000000 0.143164 0.884436
0.067319 0.139971 0.893931
0.174457 0.136779 0.903426
0.285688 0.133587 0.912921
0.401012 0.130395 0.922415
0.520428 0.127203 0.931910
0.643937 0.124010 0.941405
0.771538 0.120818 0.950899
0.903232 0.117626 0.960394
0.000000 0.241127 0.916377
0.071449 0.239981 0.925872
0.185471 0.238835 0.935367
0.303586 0.237689 0.944861
0.425794 0.236543 0.954356
0.552094 0.235397 0.963851
0.682486 0.234251 0.973346
0.816971 0.233105 0.982840
0.955549 0.231960 0.992335
0.000000 0.352858 0.948318
0.075579 0.353758 0.957813
0.196485 0.354658 0.967308
0.321484 0.355559 0.976802
0.450575 0.356459 0.986297
0.583759 0.357360 0.995792
0.721035 0.358260 1.000000
0.865081 0.363054 1.000000
1.000000 0.367844 0.999197
0.000000 0.478356 0.980259
0.079710 0.481303 0.989754
0.207499 0.484249 0.999248
0.343037 0.487941 1.000000
0.486559 0.492908 1.000000
0.630132 0.497791 0.997958
0.773581 0.502589 0.994371
0.916729 0.507302 0.990511
1.000000 0.510150 0.980640
0.000000 0.617771 1.000000
0.107722 0.622847 1.000000
0.250999 0.627780 0.996684
0.394285 0.632569 0.992997
0.537273 0.637127 0.988871
0.671375 0.637048 0.975927
0.801530 0.636969 0.962983
0.927738 0.636890 0.950039
1.000000 0.636812 0.937095
0.014984 0.762525 0.991587
0.157757 0.764562 0.984159
0.297060 0.762510 0.971215
0.432416 0.760458 0.958271
0.563825 0.758405 0.945327
0.691289 0.756353 0.932382
0.814805 0.754301 0.919438
0.934376 0.752249 0.906494
1.000000 0.750197 0.893550
0.067612 0.882509 0.953558
0.204223 0.878484 0.940614
0.336887 0.874458 0.927670
0.465605 0.870433 0.914726
0.590377 0.866408 0.901782
0.711202 0.862382 0.888837
0.828081 0.858357 0.875893
0.941014 0.854332 0.862949
1.000000 0.850306 0.850005
0.120716 0.985128 0.910013
0.250689 0.979130 0.897069
0.376715 0.973131 0.884125
0.498795 0.967133 0.871181
0.616929 0.961134 0.858237
0.731116 0.955136 0.845292
0.841357 0.949137 0.832348
0.947652 0.943139 0.819404
1.000000 0.937140 0.806460
