assets/.cache/luts/warm.cube
# Generated by aivideomaker post-grade.mjs — preset "warm"
LUT_3D_SIZE 17
DOMAIN_MIN 0.0 0.0 0.0
DOMAIN_MAX 1.0 1.0 1.0
0.000000 0.000000 0.000000
0.068660 0.000000 0.000000
0.141509 0.000000 0.000000
0.214358 0.000000 0.000000
0.287207 0.000000 0.000000
0.360056 0.000000 0.000000
0.432904 0.000000 0.000000
0.505753 0.000000 0.000000
0.578602 0.000000 0.000000
0.651451 0.000000 0.000000
0.724300 0.000000 0.000000
0.797149 0.000000 0.000000
0.869998 0.000000 0.000000
0.942847 0.000000 0.000000
1.000000 0.000000 0.000000
1.000000 0.000000 0.000000
1.000000 0.000000 0.000000
0.000000 0.053334 0.000000
0.066410 0.052497 0.000000
0.139259 0.051610 0.000000
0.212108 0.050723 0.000000
0.284956 0.049835 0.000000
0.357805 0.048948 0.000000
0.430654 0.048061 0.000000
0.503503 0.047173 0.000000
0.576352 0.046286 0.000000
0.649201 0.045399 0.000000
0.722050 0.044511 0.000000
0.794899 0.043624 0.000000
0.867748 0.042737 0.000000
0.940597 0.041849 0.000000
1.000000 0.040962 0.000000
1.000000 0.040578 0.000000
1.000000 0.040578 0.000000
0.000000 0.121415 0.000000
0.063537 0.120579 0.000000
0.136386 0.119691 0.000000
0.209235 0.118804 0.000000
0.282084 0.117917 0.000000
0.354933 0.117029 0.000000
0.427782 0.116142 0.000000
0.500631 0.115255 0.000000
0.573480 0.114367 0.000000
0.646329 0.113480 0.000000
0.719178 0.112593 0.000000
0.792026 0.111705 0.000000
0.864875 0.110818 0.000000
0.937724 0.109930 0.000000
1.000000 0.109043 0.000000
1.000000 0.108659 0.000000
1.000000 0.108659 0.000000
0.000000 0.189496 0.000000
0.060665 0.188660 0.000000
0.133514 0.187773 0.000000
0.206363 0.186885 0.000000
0.279212 0.185998 0.000000
0.352061 0.185111 0.000000
0.424909 0.184223 0.000000
0.497758 0.183336 0.000000
0.570607 0.182449 0.000000
0.643456 0.181561 0.000000
0.716305 0.180674 0.000000
0.789154 0.179787 0.000000
0.862003 0.178899 0.000000
0.934852 0.178012 0.000000
1.000000 0.177124 0.000000
1.000000 0.176740 0.000000
1.000000 0.176740 0.000000
0.000000 0.257578 0.000000
0.057792 0.256741 0.000000
0.130641 0.255854 0.000000
0.203490 0.254967 0.000000
0.276339 0.254079 0.000000
0.349188 0.253192 0.000000
0.422037 0.252305 0.000000
0.494886 0.251417 0.000000
0.567735 0.250530 0.000000
0.640584 0.249643 0.000000
0.713433 0.248755 0.000000
0.786282 0.247868 0.000000
0.859130 0.246980 0.000000
0.931979 0.246093 0.000000
1.000000 0.245206 0.000000
1.000000 0.244822 0.000000
1.000000 0.244822 0.000000
0.000000 0.325659 0.000000
0.054920 0.324823 0.000000
0.127769 0.323935 0.000000
0.200618 0.323048 0.000000
0.273467 0.322161 0.000000
0.346316 0.321273 0.000000
0.419165 0.320386 0.000000
0.492014 0.319499 0.000000
0.564862 0.318611 0.000000
0.637711 0.317724 0.000000
0.710560 0.316836 0.000000
0.783409 0.315949 0.000000
0.856258 0.315062 0.000000
0.929107 0.314174 0.000000
1.000000 0.313287 0.000000
1.000000 0.312903 0.000000
1.000000 0.312903 0.000000
0.000000 0.393740 0.000000
0.052048 0.392904 0.000000
0.124897 0.392017 0.000000
0.197745 0.391129 0.000000
0.270594 0.390242 0.000000
0.343443 0.389355 0.000000
0.416292 0.388467 0.000000
0.489141 0.387580 0.000000
0.561990 0.386693 0.000000
0.634839 0.385805 0.000000
0.707688 0.384918 0.000000
0.780537 0.384030 0.000000
0.853386 0.383143 0.000000
0.926235 0.382256 0.000000
0.999083 0.381368 0.000000
1.000000 0.380984 0.000000
1.000000 0.380984 0.000000
0.000000 0.461822 0.000000
0.049175 0.460985 0.000000
0.122024 0.460098 0.000000
0.194873 0.459211 0.000000
0.267722 0.458323 0.000000
0.340571 0.457436 0.000000
0.413420 0.456549 0.000000
0.486269 0.455661 0.000000
0.559118 0.454774 0.000000
0.631966 0.453886 0.000000
0.704815 0.452999 0.000000
0.777664 0.452112 0.000000
0.850513 0.451224 0.000000
0.923362 0.450337 0.000000
0.996211 0.449450 0.000000
1.000000 0.449066 0.000000
1.000000 0.449066 0.000000
0.000000 0.529903 0.000000
0.046303 0.529067 0.000000
0.119152 0.528179 0.000000
0.192001 0.527292 0.000000
0.264850 0.526405 0.000000
0.337698 0.525517 0.000000
0.410547 0.524630 0.000000
0.483396 0.523742 0.000000
0.556245 0.522855 0.000000
0.629094 0.521968 0.000000
0.701943 0.521080 0.000000
0.774792 0.520193 0.000000
0.847641 0.519306 0.000000
0.920490 0.518418 0.000000
0.993339 0.517531 0.000000
1.000000 0.517147 0.000000
1.000000 0.517147 0.000000
0.000000 0.597984 0.000000
0.043430 0.597148 0.000000
0.116279 0.596261 0.000000
0.189128 0.595373 0.000000
0.261977 0.594486 0.000000
0.334826 0.593599 0.000000
0.407675 0.592711 0.000000
0.480524 0.591824 0.000000
0.553373 0.590936 0.000000
0.626222 0.590049 0.000000
0.699071 0.589162 0.000000
0.771919 0.588274 0.000000
0.844768 0.587387 0.000000
0.917617 0.586500 0.000000
0.990466 0.585612 0.000000
1.000000 0.585228 0.000000
1.000000 0.585228 0.000000
0.000000 0.666066 0.000000
0.040558 0.665229 0.000000
0.113407 0.664342 0.000000
0.186256 0.663455 0.000000
0.259105 0.662567 0.000000
0.331954 0.661680 0.000000
0.404802 0.660792 0.000000
0.477651 0.659905 0.000000
0.550500 0.659018 0.000000
0.623349 0.658130 0.000000
0.696198 0.657243 0.000000
0.769047 0.656356 0.000000
0.841896 0.655468 0.000000
0.914745 0.654581 0.000000
0.987594 0.653694 0.000000
1.000000 0.653310 0.000000
1.000000 0.653310 0.000000
0.000000 0.734147 0.000000
0.037686 0.733311 0.000000
0.110534 0.732423 0.000000
0.183383 0.731536 0.000000
0.256232 0.730648 0.000000
0.329081 0.729761 0.000000
0.401930 0.728874 0.000000
0.474779 0.727986 0.000000
0.547628 0.727099 0.000000
0.620477 0.726212 0.000000
0.693326 0.725324 0.000000
0.766175 0.724437 0.000000
0.839024 0.723550 0.000000
0.911872 0.722662 0.000000
0.984721 0.721775 0.000000
1.000000 0.721391 0.000000
1.000000 0.721391 0.000000
0.000000 0.802228 0.000000
0.034813 0.801392 0.000000
0.107662 0.800505 0.000000
0.180511 0.799617 0.000000
0.253360 0.798730 0.000000
0.326209 0.797842 0.000000
0.399058 0.796955 0.000000
0.471907 0.796068 0.000000
0.544755 0.795180 0.000000
0.617604 0.794293 0.000000
0.690453 0.793406 0.000000
0.763302 0.792518 0.000000
0.836151 0.791631 0.000000
0.909000 0.790744 0.000000
0.981849 0.789856 0.000000
1.000000 0.789472 0.000000
1.000000 0.789472 0.000000
0.000000 0.870309 0.000000
0.031941 0.869473 0.000000
0.104790 0.868586 0.000000
0.177638 0.867698 0.000000
0.250487 0.866811 0.000000
0.323336 0.865924 0.000000
0.396185 0.865036 0.000000
0.469034 0.864149 0.000000
0.541883 0.863262 0.000000
0.614732 0.862374 0.000000
0.687581 0.861487 0.000000
0.760430 0.860600 0.000000
0.833279 0.859712 0.000000
0.906128 0.858825 0.000000
0.978977 0.857938 0.000000
1.000000 0.857553 0.000000
1.000000 0.857553 0.000000
0.000000 0.938391 0.000000
0.029068 0.937555 0.000000
0.101917 0.936667 0.000000
0.174766 0.935780 0.000000
0.247615 0.934892 0.000000
0.320464 0.934005 0.000000
0.393313 0.933118 0.000000
0.466162 0.932230 0.000000
0.539011 0.931343 0.000000
0.611860 0.930456 0.000000
0.684708 0.929568 0.000000
0.757557 0.928681 0.000000
0.830406 0.927794 0.000000
0.903255 0.926906 0.000000
0.976104 0.926019 0.000000
1.000000 0.925635 0.000000
1.000000 0.925635 0.000000
0.000000 1.000000 0.000000
0.026196 1.000000 0.000000
0.099045 1.000000 0.000000
0.171894 1.000000 0.000000
0.244743 1.000000 0.000000
0.317591 1.000000 0.000000
0.390440 1.000000 0.000000
0.463289 1.000000 0.000000
0.536138 0.999424 0.000000
0.608987 0.998537 0.000000
0.681836 0.997650 0.000000
0.754685 0.996762 0.000000
0.827534 0.995875 0.000000
0.900383 0.994988 0.000000
0.973232 0.994100 0.000000
1.000000 0.993716 0.000000
1.000000 0.993716 0.000000
0.000000 1.000000 0.000000
0.025748 1.000000 0.000000
0.098597 1.000000 0.000000
0.171446 1.000000 0.000000
0.244295 1.000000 0.000000
0.317144 1.000000 0.000000
0.389992 1.000000 0.000000
0.462841 1.000000 0.000000
0.535690 1.000000 0.000000
0.608539 1.000000 0.000000
0.681388 1.000000 0.000000
0.754237 1.000000 0.000000
0.827086 1.000000 0.000000
0.899935 1.000000 0.000000
0.972784 1.000000 0.000000
1.000000 1.000000 0.000000
1.000000 1.000000 0.000000
0.000000 0.000000 0.038730
0.068501 0.000000 0.037894
0.141350 0.000000 0.037006
0.214199 0.000000 0.036119
0.287048 0.000000 0.035231
0.359897 0.000000 0.034344
0.432746 0.000000 0.033457
0.505594 0.000000 0.032569
0.578443 0.000000 0.031682
0.651292 0.000000 0.030795
0.724141 0.000000 0.029907
0.796990 0.000000 0.029020
0.869839 0.000000 0.028133
0.942688 0.000000 0.027245
1.000000 0.000000 0.026358
1.000000 0.000000 0.025974
1.000000 0.000000 0.025974
0.000000 0.053175 0.036480
0.066251 0.052338 0.035643
0.139100 0.051451 0.034756
0.211949 0.050564 0.033869
0.284798 0.049676 0.032981
0.357646 0.048789 0.032094
0.430495 0.047902 0.031207
0.503344 0.047014 0.030319
0.576193 0.046127 0.029432
0.649042 0.045240 0.028545
0.721891 0.044352 0.027657
0.794740 0.043465 0.026770
0.867589 0.042578 0.025883
0.940438 0.041690 0.024995
1.000000 0.040803 0.024108
1.000000 0.040419 0.023724
1.000000 0.040419 0.023724
0.000000 0.121256 0.033607
0.063378 0.120420 0.032771
0.136227 0.119532 0.031884
0.209076 0.118645 0.030996
0.281925 0.117758 0.030109
0.354774 0.116870 0.029222
0.427623 0.115983 0.028334
0.500472 0.115096 0.027447
0.573321 0.114208 0.026560
0.646170 0.113321 0.025672
0.719019 0.112434 0.024785
0.791867 0.111546 0.023897
0.864716 0.110659 0.023010
0.937565 0.109772 0.022123
1.000000 0.108884 0.021235
1.000000 0.108500 0.020851
1.000000 0.108500 0.020851
0.000000 0.189337 0.030735
0.060506 0.188501 0.029898
0.133355 0.187614 0.029011
0.206204 0.186726 0.028124
0.279053 0.185839 0.027236
0.351902 0.184952 0.026349
0.424751 0.184064 0.025462
0.497599 0.183177 0.024574
0.570448 0.182290 0.023687
0.643297 0.181402 0.022800
0.716146 0.180515 0.021912
0.788995 0.179628 0.021025
0.861844 0.178740 0.020138
0.934693 0.177853 0.019250
1.000000 0.176966 0.018363
1.000000 0.176581 0.017979
1.000000 0.176581 0.017979
0.000000 0.257419 0.027862
0.057634 0.256582 0.027026
0.130482 0.255695 0.026139
0.203331 0.254808 0.025251
0.276180 0.253920 0.024364
0.349029 0.253033 0.023477
0.421878 0.252146 0.022589
0.494727 0.251258 0.021702
0.567576 0.250371 0.020815
0.640425 0.249484 0.019927
0.713274 0.248596 0.019040
0.786123 0.247709 0.018153
0.858972 0.246822 0.017265
0.931820 0.245934 0.016378
1.000000 0.245047 0.015491
1.000000 0.244663 0.015106
1.000000 0.244663 0.015106
0.000000 0.325500 0.024990
0.054761 0.324664 0.024154
0.127610 0.323776 0.023266
0.200459 0.322889 0.022379
0.273308 0.322002 0.021492
0.346157 0.321114 0.020604
0.419006 0.320227 0.019717
0.491855 0.319340 0.018830
0.564703 0.318452 0.017942
0.637552 0.317565 0.017055
0.710401 0.316678 0.016168
0.783250 0.315790 0.015280
0.856099 0.314903 0.014393
0.928948 0.314016 0.013506
1.000000 0.313128 0.012618
1.000000 0.312744 0.012234
1.000000 0.312744 0.012234
0.000000 0.393581 0.022118
0.051889 0.392745 0.021281
0.124738 0.391858 0.020394
0.197587 0.390970 0.019507
0.270435 0.390083 0.018619
0.343284 0.389196 0.017732
0.416133 0.388308 0.016845
0.488982 0.387421 0.015957
0.561831 0.386534 0.015070
0.634680 0.385646 0.014182
0.707529 0.384759 0.013295
0.780378 0.383872 0.012408
0.853227 0.382984 0.011520
0.926076 0.382097 0.010633
0.998925 0.381210 0.009746
1.000000 0.380825 0.009362
1.000000 0.380825 0.009362
0.000000 0.461663 0.019245
0.049016 0.460826 0.018409
0.121865 0.459939 0.017521
0.194714 0.459052 0.016634
0.267563 0.458164 0.015747
0.340412 0.457277 0.014859
0.413261 0.456390 0.013972
0.486110 0.455502 0.013085
0.558959 0.454615 0.012197
0.631808 0.453728 0.011310
0.704656 0.452840 0.010423
0.777505 0.451953 0.009535
0.850354 0.451066 0.008648
0.923203 0.450178 0.007761
0.996052 0.449291 0.006873
1.000000 0.448907 0.006489
1.000000 0.448907 0.006489
0.000000 0.529744 0.016373
0.046144 0.528908 0.015536
0.118993 0.528020 0.014649
0.191842 0.527133 0.013762
0.264691 0.526246 0.012874
0.337539 0.525358 0.011987
0.410388 0.524471 0.011100
0.483237 0.523584 0.010212
0.556086 0.522696 0.009325
0.628935 0.521809 0.008438
0.701784 0.520922 0.007550
0.774633 0.520034 0.006663
0.847482 0.519147 0.005776
0.920331 0.518260 0.004888
0.993180 0.517372 0.004001
1.000000 0.516988 0.003617
1.000000 0.516988 0.003617
0.000000 0.597825 0.013500
0.043271 0.596989 0.012664
0.116120 0.596102 0.011777
0.188969 0.595214 0.010889
0.261818 0.594327 0.010002
0.334667 0.593440 0.009115
0.407516 0.592552 0.008227
0.480365 0.591665 0.007340
0.553214 0.590778 0.006453
0.626063 0.589890 0.005565
0.698912 0.589003 0.004678
0.771761 0.588116 0.003791
0.844609 0.587228 0.002903
0.917458 0.586341 0.002016
0.990307 0.585454 0.001129
1.000000 0.585069 0.000744
1.000000 0.585069 0.000744
0.000000 0.665907 0.010628
0.040399 0.665070 0.009792
0.113248 0.664183 0.008904
0.186097 0.663296 0.008017
0.258946 0.662408 0.007129
0.331795 0.661521 0.006242
0.404644 0.660634 0.005355
0.477492 0.659746 0.004467
0.550341 0.658859 0.003580
0.623190 0.657972 0.002693
0.696039 0.657084 0.001805
0.768888 0.656197 0.000918
0.841737 0.655310 0.000031
0.914586 0.654422 0.000000
0.987435 0.653535 0.000000
1.000000 0.653151 0.000000
1.000000 0.653151 0.000000
0.000000 0.733988 0.007755
0.037527 0.733152 0.006919
0.110375 0.732264 0.006032
0.183224 0.731377 0.005144
0.256073 0.730490 0.004257
0.328922 0.729602 0.003370
0.401771 0.728715 0.002482
0.474620 0.727828 0.001595
0.547469 0.726940 0.000708
0.620318 0.726053 0.000000
0.693167 0.725166 0.000000
0.766016 0.724278 0.000000
0.838865 0.723391 0.000000
0.911714 0.722504 0.000000
0.984562 0.721616 0.000000
1.000000 0.721232 0.000000
1.000000 0.721232 0.000000
0.000000 0.802069 0.004883
0.034654 0.801233 0.004047
0.107503 0.800346 0.003159
0.180352 0.799458 0.002272
0.253201 0.798571 0.001385
0.326050 0.797684 0.000497
0.398899 0.796796 0.000000
0.471748 0.795909 0.000000
0.544597 0.795022 0.000000
0.617445 0.794134 0.000000
0.690294 0.793247 0.000000
0.763143 0.792360 0.000000
0.835992 0.791472 0.000000
0.908841 0.790585 0.000000
0.981690 0.789698 0.000000
1.000000 0.789313 0.000000
1.000000 0.789313 0.000000
0.000000 0.870151 0.002011
0.031782 0.869314 0.001174
0.104631 0.868427 0.000287
0.177480 0.867540 0.000000
0.250328 0.866652 0.000000
0.323177 0.865765 0.000000
0.396026 0.864878 0.000000
0.468875 0.863990 0.000000
0.541724 0.863103 0.000000
0.614573 0.862216 0.000000
0.687422 0.861328 0.000000
0.760271 0.860441 0.000000
0.833120 0.859554 0.000000
0.905969 0.858666 0.000000
0.978818 0.857779 0.000000
1.000000 0.857395 0.000000
1.000000 0.857395 0.000000
0.000000 0.938232 0.000000
0.028909 0.937396 0.000000
0.101758 0.936508 0.000000
0.174607 0.935621 0.000000
0.247456 0.934734 0.000000
0.320305 0.933846 0.000000
0.393154 0.932959 0.000000
0.466003 0.932072 0.000000
0.538852 0.931184 0.000000
0.611701 0.930297 0.000000
0.684550 0.929410 0.000000
0.757398 0.928522 0.000000
0.830247 0.927635 0.000000
0.903096 0.926747 0.000000
0.975945 0.925860 0.000000
1.000000 0.925476 0.000000
1.000000 0.925476 0.000000
0.000000 1.000000 0.000000
0.026037 1.000000 0.000000
0.098886 1.000000 0.000000
0.171735 1.000000 0.000000
0.244584 1.000000 0.000000
0.317433 1.000000 0.000000
0.390281 1.000000 0.000000
0.463130 1.000000 0.000000
0.535979 0.999266 0.000000
0.608828 0.998378 0.000000
0.681677 0.997491 0.000000
0.754526 0.996604 0.000000
0.827375 0.995716 0.000000
0.900224 0.994829 0.000000
0.973073 0.993941 0.000000
1.000000 0.993557 0.000000
1.000000 0.993557 0.000000
0.000000 1.000000 0.000000
0.025589 1.000000 0.000000
0.098438 1.000000 0.000000
0.171287 1.000000 0.000000
0.244136 1.000000 0.000000
0.316985 1.000000 0.000000
0.389834 1.000000 0.000000
0.462682 1.000000 0.000000
0.535531 1.000000 0.000000
0.608380 1.000000 0.000000
0.681229 1.000000 0.000000
0.754078 1.000000 0.000000
0.826927 1.000000 0.000000
0.899776 1.000000 0.000000
0.972625 1.000000 0.000000
1.000000 1.000000 0.000000
1.000000 1.000000 0.000000
0.000000 0.000000 0.103851
0.068234 0.000000 0.103015
0.141083 0.000000 0.102128
0.213932 0.000000 0.101240
0.286781 0.000000 0.100353
0.359629 0.000000 0.099466
0.432478 0.000000 0.098578
0.505327 0.000000 0.097691
0.578176 0.000000 0.096804
0.651025 0.000000 0.095916
0.723874 0.000000 0.095029
0.796723 0.000000 0.094142
0.869572 0.000000 0.093254
0.942421 0.000000 0.092367
1.000000 0.000000 0.091480
1.000000 0.000000 0.091095
1.000000 0.000000 0.091095
0.000000 0.052907 0.101601
0.065984 0.052071 0.100765
0.138832 0.051184 0.099877
0.211681 0.050296 0.098990
0.284530 0.049409 0.098103
0.357379 0.048522 0.097215
0.430228 0.047634 0.096328
0.503077 0.046747 0.095441
0.575926 0.045860 0.094553
0.648775 0.044972 0.093666
0.721624 0.044085 0.092779
0.794473 0.043198 0.091891
0.867322 0.042310 0.091004
0.940171 0.041423 0.090117
1.000000 0.040536 0.089229
1.000000 0.040151 0.088845
1.000000 0.040151 0.088845
0.000000 0.120989 0.098729
0.063111 0.120152 0.097892
0.135960 0.119265 0.097005
0.208809 0.118378 0.096118
0.281658 0.117490 0.095230
0.354507 0.116603 0.094343
0.427356 0.115716 0.093456
0.500205 0.114828 0.092568
0.573054 0.113941 0.091681
0.645902 0.113054 0.090794
0.718751 0.112166 0.089906
0.791600 0.111279 0.089019
0.864449 0.110392 0.088132
0.937298 0.109504 0.087244
1.000000 0.108617 0.086357
1.000000 0.108233 0.085973
1.000000 0.108233 0.085973
0.000000 0.189070 0.095856
0.060239 0.188234 0.095020
0.133088 0.187346 0.094133
0.205937 0.186459 0.093245
0.278785 0.185572 0.092358
0.351634 0.184684 0.091471
0.424483 0.183797 0.090583
0.497332 0.182910 0.089696
0.570181 0.182022 0.088809
0.643030 0.181135 0.087921
0.715879 0.180248 0.087034
0.788728 0.179360 0.086147
0.861577 0.178473 0.085259
0.934426 0.177586 0.084372
1.000000 0.176698 0.083485
1.000000 0.176314 0.083100
1.000000 0.176314 0.083100
0.000000 0.257151 0.092984
0.057366 0.256315 0.092148
0.130215 0.255428 0.091260
0.203064 0.254540 0.090373
0.275913 0.253653 0.089486
0.348762 0.252766 0.088598
0.421611 0.251878 0.087711
0.494460 0.250991 0.086824
0.567309 0.250104 0.085936
0.640158 0.249216 0.085049
0.713007 0.248329 0.084162
0.785855 0.247442 0.083274
0.858704 0.246554 0.082387
0.931553 0.245667 0.081499
1.000000 0.244780 0.080612
1.000000 0.244395 0.080228
1.000000 0.244395 0.080228
0.000000 0.325233 0.090111
0.054494 0.324396 0.089275
0.127343 0.323509 0.088388
0.200192 0.322622 0.087500
0.273041 0.321734 0.086613
0.345890 0.320847 0.085726
0.418738 0.319960 0.084838
0.491587 0.319072 0.083951
0.564436 0.318185 0.083064
0.637285 0.317298 0.082176
0.710134 0.316410 0.081289
0.782983 0.315523 0.080402
0.855832 0.314636 0.079514
0.928681 0.313748 0.078627
1.000000 0.312861 0.077740
1.000000 0.312477 0.077355
1.000000 0.312477 0.077355
0.000000 0.393314 0.087239
0.051621 0.392478 0.086403
0.124470 0.391590 0.085515
0.197319 0.390703 0.084628
0.270168 0.389816 0.083741
0.343017 0.388928 0.082853
0.415866 0.388041 0.081966
0.488715 0.387154 0.081079
0.561564 0.386266 0.080191
0.634413 0.385379 0.079304
0.707262 0.384492 0.078417
0.780111 0.383604 0.077529
0.852959 0.382717 0.076642
0.925808 0.381830 0.075755
0.998657 0.380942 0.074867
1.000000 0.380558 0.074483
1.000000 0.380558 0.074483
0.000000 0.461395 0.084367
0.048749 0.460559 0.083530
0.121598 0.459672 0.082643
0.194447 0.458784 0.081756
0.267296 0.457897 0.080868
0.340145 0.457010 0.079981
0.412994 0.456122 0.079094
0.485843 0.455235 0.078206
0.558691 0.454348 0.077319
0.631540 0.453460 0.076432
0.704389 0.452573 0.075544
0.777238 0.451686 0.074657
0.850087 0.450798 0.073770
0.922936 0.449911 0.072882
0.995785 0.449024 0.071995
1.000000 0.448639 0.071611
1.000000 0.448639 0.071611
0.000000 0.529477 0.081494
0.045877 0.528640 0.080658
0.118726 0.527753 0.079771
0.191574 0.526866 0.078883
0.264423 0.525978 0.077996
0.337272 0.525091 0.077109
0.410121 0.524204 0.076221
0.482970 0.523316 0.075334
0.555819 0.522429 0.074446
0.628668 0.521542 0.073559
0.701517 0.520654 0.072672
0.774366 0.519767 0.071784
0.847215 0.518880 0.070897
0.920064 0.517992 0.070010
0.992912 0.517105 0.069122
1.000000 0.516721 0.068738
1.000000 0.516721 0.068738
0.000000 0.597558 0.078622
0.043004 0.596722 0.077785
0.115853 0.595834 0.076898
0.188702 0.594947 0.076011
0.261551 0.594060 0.075123
0.334400 0.593172 0.074236
0.407249 0.592285 0.073349
0.480098 0.591398 0.072461
0.552947 0.590510 0.071574
0.625795 0.589623 0.070687
0.698644 0.588736 0.069799
0.771493 0.587848 0.068912
0.844342 0.586961 0.068025
0.917191 0.586074 0.067137
0.990040 0.585186 0.066250
1.000000 0.584802 0.065866
1.000000 0.584802 0.065866
0.000000 0.665639 0.075749
0.040132 0.664803 0.074913
0.112981 0.663916 0.074026
0.185830 0.663028 0.073138
0.258679 0.662141 0.072251
0.331527 0.661254 0.071364
0.404376 0.660366 0.070476
0.477225 0.659479 0.069589
0.550074 0.658592 0.068702
0.622923 0.657704 0.067814
0.695772 0.656817 0.066927
0.768621 0.655930 0.066040
0.841470 0.655042 0.065152
0.914319 0.654155 0.064265
0.987168 0.653268 0.063378
1.000000 0.652883 0.062993
1.000000 0.652883 0.062993
0.000000 0.733721 0.072877
0.037259 0.732884 0.072041
0.110108 0.731997 0.071153
0.182957 0.731110 0.070266
0.255806 0.730222 0.069379
0.328655 0.729335 0.068491
0.401504 0.728448 0.067604
0.474353 0.727560 0.066717
0.547202 0.726673 0.065829
0.620051 0.725786 0.064942
0.692900 0.724898 0.064055
0.765748 0.724011 0.063167
0.838597 0.723124 0.062280
0.911446 0.722236 0.061393
0.984295 0.721349 0.060505
1.000000 0.720965 0.060121
1.000000 0.720965 0.060121
0.000000 0.801802 0.070004
0.034387 0.800966 0.069168
0.107236 0.800078 0.068281
0.180085 0.799191 0.067394
0.252934 0.798304 0.066506
0.325783 0.797416 0.065619
0.398631 0.796529 0.064731
0.471480 0.795642 0.063844
0.544329 0.794754 0.062957
0.617178 0.793867 0.062069
0.690027 0.792980 0.061182
0.762876 0.792092 0.060295
0.835725 0.791205 0.059407
0.908574 0.790318 0.058520
0.981423 0.789430 0.057633
1.000000 0.789046 0.057248
1.000000 0.789046 0.057248
0.000000 0.869883 0.067132
0.031515 0.869047 0.066296
0.104363 0.868160 0.065408
0.177212 0.867272 0.064521
0.250061 0.866385 0.063634
0.322910 0.865498 0.062746
0.395759 0.864610 0.061859
0.468608 0.863723 0.060972
0.541457 0.862836 0.060084
0.614306 0.861948 0.059197
0.687155 0.861061 0.058310
0.760004 0.860174 0.057422
0.832853 0.859286 0.056535
0.905701 0.858399 0.055648
0.978550 0.857512 0.054760
1.000000 0.857127 0.054376
1.000000 0.857127 0.054376
0.000000 0.937965 0.064260
0.028642 0.937128 0.063423
0.101491 0.936241 0.062536
0.174340 0.935354 0.061649
0.247189 0.934466 0.060761
0.320038 0.933579 0.059874
0.392887 0.932692 0.058987
0.465736 0.931804 0.058099
0.538584 0.930917 0.057212
0.611433 0.930030 0.056325
0.684282 0.929142 0.055437
0.757131 0.928255 0.054550
0.829980 0.927368 0.053663
0.902829 0.926480 0.052775
0.975678 0.925593 0.051888
1.000000 0.925209 0.051504
1.000000 0.925209 0.051504
0.000000 1.000000 0.061387
0.025770 1.000000 0.060551
0.098619 1.000000 0.059664
0.171467 1.000000 0.058776
0.244316 1.000000 0.057889
0.317165 1.000000 0.057002
0.390014 1.000000 0.056114
0.462863 0.999886 0.055227
0.535712 0.998998 0.054340
0.608561 0.998111 0.053452
0.681410 0.997224 0.052565
0.754259 0.996336 0.051678
0.827108 0.995449 0.050790
0.899957 0.994562 0.049903
0.972806 0.993674 0.049016
1.000000 0.993290 0.048631
1.000000 0.993290 0.048631
0.000000 1.000000 0.060939
0.025322 1.000000 0.060103
0.098171 1.000000 0.059216
0.171020 1.000000 0.058328
0.243869 1.000000 0.057441
0.316717 1.000000 0.056554
0.389566 1.000000 0.055666
0.462415 1.000000 0.054779
0.535264 1.000000 0.053892
0.608113 1.000000 0.053004
0.680962 1.000000 0.052117
0.753811 1.000000 0.051230
0.826660 1.000000 0.050342
0.899509 1.000000 0.049455
0.972358 1.000000 0.048568
1.000000 1.000000 0.048183
1.000000 1.000000 0.048183
0.000000 0.000000 0.168973
0.067967 0.000000 0.168137
0.140815 0.000000 0.167249
0.213664 0.000000 0.166362
0.286513 0.000000 0.165475
0.359362 0.000000 0.164587
0.432211 0.000000 0.163700
0.505060 0.000000 0.162813
0.577909 0.000000 0.161925
0.650758 0.000000 0.161038
0.723607 0.000000 0.160150
0.796456 0.000000 0.159263
0.869305 0.000000 0.158376
0.942153 0.000000 0.157488
1.000000 0.000000 0.156601
1.000000 0.000000 0.156217
1.000000 0.000000 0.156217
