assets/.cache/luts/warm.cube
# Generated by aivideomaker post-grade.mjs — preset "warm"
LUT_3D_SIZE 9
DOMAIN_MIN 0.0 0.0 0.0
DOMAIN_MAX 1.0 1.0 1.0
0.000000 0.000000 0.000000
0.141509 0.000000 0.000000
0.287207 0.000000 0.000000
0.432904 0.000000 0.000000
0.578602 0.000000 0.000000
0.724300 0.000000 0.000000
0.869998 0.000000 0.000000
1.000000 0.000000 0.000000
1.000000 0.000000 0.000000
0.000000 0.121415 0.000000
0.136386 0.119691 0.000000
0.282084 0.117917 0.000000
0.427782 0.116142 0.000000
0.573480 0.114367 0.000000
0.719178 0.112593 0.000000
0.864875 0.110818 0.000000
1.000000 0.109043 0.000000
1.000000 0.108659 0.000000
0.000000 0.257578 0.000000
0.130641 0.255854 0.000000
0.276339 0.254079 0.000000
0.422037 0.252305 0.000000
0.567735 0.250530 0.000000
0.713433 0.248755 0.000000
0.859130 0.246980 0.000000
1.000000 0.245206 0.000000
1.000000 0.244822 0.000000
0.000000 0.393740 0.000000
0.124897 0.392017 0.000000
0.270594 0.390242 0.000000
0.416292 0.388467 0.000000
0.561990 0.386693 0.000000
0.707688 0.384918 0.000000
0.853386 0.383143 0.000000
0.999083 0.381368 0.000000
1.000000 0.380984 0.000000
0.000000 0.529903 0.000000
0.119152 0.528179 0.000000
0.264850 0.526405 0.000000
0.410547 0.524630 0.000000
0.556245 0.522855 0.000000
0.701943 0.521080 0.000000
0.847641 0.519306 0.000000
0.993339 0.517531 0.000000
1.000000 0.517147 0.000000
0.000000 0.666066 0.000000
0.113407 0.664342 0.000000
0.259105 0.662567 0.000000
0.404802 0.660792 0.000000
0.550500 0.659018 0.000000
0.696198 0.657243 0.000000
0.841896 0.655468 0.000000
0.987594 0.653694 0.000000
1.000000 0.653310 0.000000
0.000000 0.802228 0.000000
0.107662 0.800505 0.000000
0.253360 0.798730 0.000000
0.399058 0.796955 0.000000
0.544755 0.795180 0.000000
0.690453 0.793406 0.000000
0.836151 0.791631 0.000000
0.981849 0.789856 0.000000
1.000000 0.789472 0.000000
0.000000 0.938391 0.000000
0.101917 0.936667 0.000000
0.247615 0.934892 0.000000
0.393313 0.933118 0.000000
0.539011 0.931343 0.000000
0.684708 0.929568 0.000000
0.830406 0.927794 0.000000
0.976104 0.926019 0.000000
1.000000 0.925635 0.000000
0.000000 1.000000 0.000000
0.098597 1.000000 0.000000
0.244295 1.000000 0.000000
0.389992 1.000000 0.000000
0.535690 1.000000 0.000000
0.681388 1.000000 0.000000
0.827086 1.000000 0.000000
0.972784 1.000000 0.000000
1.000000 1.000000 0.000000
0.000000 0.000000 0.103851
0.141083 0.000000 0.102128
0.286781 0.000000 0.100353
0.432478 0.000000 0.098578
0.578176 0.000000 0.096804
0.723874 0.000000 0.095029
0.869572 0.000000 0.093254
1.000000 0.000000 0.091480
1.000000 0.000000 0.091095
0.000000 0.120989 0.098729
0.135960 0.119265 0.097005
0.281658 0.117490 0.095230
0.427356 0.115716 0.093456
0.573054 0.113941 0.091681
0.718751 0.112166 0.089906
0.864449 0.110392 0.088132
1.000000 0.108617 0.086357
1.000000 0.108233 0.085973
0.000000 0.257151 0.092984
0.130215 0.255428 0.091260
0.275913 0.253653 0.089486
0.421611 0.251878 0.087711
0.567309 0.250104 0.085936
0.713007 0.248329 0.084162
0.858704 0.246554 0.082387
1.000000 0.244780 0.080612
1.000000 0.244395 0.080228
0.000000 0.393314 0.087239
0.124470 0.391590 0.085515
0.270168 0.389816 0.083741
0.415866 0.388041 0.081966
0.561564 0.386266 0.080191
0.707262 0.384492 0.078417
0.852959 0.382717 0.076642
0.998657 0.380942 0.074867
1.000000 0.380558 0.074483
0.000000 0.529477 0.081494
0.118726 0.527753 0.079771
0.264423 0.525978 0.077996
0.410121 0.524204 0.076221
0.555819 0.522429 0.074446
0.701517 0.520654 0.072672
0.847215 0.518880 0.070897
0.992912 0.517105 0.069122
1.000000 0.516721 0.068738
0.000000 0.665639 0.075749
0.112981 0.663916 0.074026
0.258679 0.662141 0.072251
0.404376 0.660366 0.070476
0.550074 0.658592 0.068702
0.695772 0.656817 0.066927
0.841470 0.655042 0.065152
0.987168 0.653268 0.063378
1.000000 0.652883 0.062993
0.000000 0.801802 0.070004
0.107236 0.800078 0.068281
0.252934 0.798304 0.066506
0.398631 0.796529 0.064731
0.544329 0.794754 0.062957
0.690027 0.792980 0.061182
0.835725 0.791205 0.059407
0.981423 0.789430 0.057633
1.000000 0.789046 0.057248
0.000000 0.937965 0.064260
0.101491 0.936241 0.062536
0.247189 0.934466 0.060761
0.392887 0.932692 0.058987
0.538584 0.930917 0.057212
0.684282 0.929142 0.055437
0.829980 0.927368 0.053663
0.975678 0.925593 0.051888
1.000000 0.925209 0.051504
0.000000 1.000000 0.060939
0.098171 1.000000 0.059216
0.243869 1.000000 0.057441
0.389566 1.000000 0.055666
0.535264 1.000000 0.053892
0.680962 1.000000 0.052117
0.826660 1.000000 0.050342
0.972358 1.000000 0.048568
1.000000 1.000000 0.048183
0.000000 0.000000 0.234094
0.140548 0.000000 0.232371
0.286246 0.000000 0.230596
0.431944 0.000000 0.228821
0.577642 0.000000 0.227047
0.723340 0.000000 0.225272
0.869037 0.000000 0.223497
1.000000 0.000000 0.221723
1.000000 0.000000 0.221338
0.000000 0.120454 0.228972
0.135426 0.118731 0.227248
0.281123 0.116956 0.225473
0.426821 0.115181 0.223699
0.572519 0.113407 0.221924
0.718217 0.111632 0.220149
0.863915 0.109857 0.218375
1.000000 0.108083 0.216600
1.000000 0.107698 0.216216
0.000000 0.256617 0.223227
0.129681 0.254893 0.221503
0.275379 0.253119 0.219729
0.421076 0.251344 0.217954
0.566774 0.249569 0.216179
0.712472 0.247795 0.214405
0.858170 0.246020 0.212630
1.000000 0.244245 0.210855
1.000000 0.243861 0.210471
0.000000 0.392780 0.217482
0.123936 0.391056 0.215758
0.269634 0.389281 0.213984
0.415332 0.387507 0.212209
0.561029 0.385732 0.210434
0.706727 0.383957 0.208660
0.852425 0.382183 0.206885
0.998123 0.380408 0.205110
1.000000 0.380024 0.204726
0.000000 0.528942 0.211737
0.118191 0.527219 0.210014
0.263889 0.525444 0.208239
0.409587 0.523669 0.206464
0.555285 0.521895 0.204690
0.700982 0.520120 0.202915
0.846680 0.518345 0.201140
0.992378 0.516571 0.199366
1.000000 0.516186 0.198981
0.000000 0.665105 0.205992
0.112446 0.663381 0.204269
0.258144 0.661607 0.202494
0.403842 0.659832 0.200719
0.549540 0.658057 0.198945
0.695238 0.656283 0.197170
0.840935 0.654508 0.195395
0.986633 0.652733 0.193621
1.000000 0.652349 0.193236
0.000000 0.801268 0.200248
0.106701 0.799544 0.198524
0.252399 0.797769 0.196749
0.398097 0.795995 0.194975
0.543795 0.794220 0.193200
0.689493 0.792445 0.191425
0.835190 0.790670 0.189650
0.980888 0.788896 0.187876
1.000000 0.788512 0.187492
0.000000 0.937430 0.194503
0.100957 0.935707 0.192779
0.246654 0.933932 0.191004
0.392352 0.932157 0.189230
0.538050 0.930383 0.187455
0.683748 0.928608 0.185680
0.829446 0.926833 0.183906
0.975143 0.925058 0.182131
1.000000 0.924674 0.181747
0.000000 1.000000 0.191182
0.097636 1.000000 0.189459
0.243334 1.000000 0.187684
0.389032 1.000000 0.185909
0.534730 1.000000 0.184135
0.680428 1.000000 0.182360
0.826125 1.000000 0.180585
0.971823 1.000000 0.178811
1.000000 1.000000 0.178426
0.000000 0.000000 0.364337
0.140014 0.000000 0.362614
0.285712 0.000000 0.360839
0.431409 0.000000 0.359064
0.577107 0.000000 0.357290
0.722805 0.000000 0.355515
0.868503 0.000000 0.353740
1.000000 0.000000 0.351966
1.000000 0.000000 0.351581
0.000000 0.119920 0.359215
0.134891 0.118196 0.357491
0.280589 0.116421 0.355716
0.426287 0.114647 0.353942
0.571985 0.112872 0.352167
0.717682 0.111097 0.350392
0.863380 0.109323 0.348618
1.000000 0.107548 0.346843
1.000000 0.107164 0.346459
0.000000 0.256082 0.353470
0.129146 0.254359 0.351746
0.274844 0.252584 0.349972
0.420542 0.250809 0.348197
0.566240 0.249035 0.346422
0.711938 0.247260 0.344648
0.857635 0.245485 0.342873
1.000000 0.243711 0.341098
1.000000 0.243326 0.340714
0.000000 0.392245 0.347725
0.123401 0.390521 0.346001
0.269099 0.388747 0.344227
0.414797 0.386972 0.342452
0.560495 0.385197 0.340677
0.706193 0.383423 0.338903
0.851891 0.381648 0.337128
0.997588 0.379873 0.335353
1.000000 0.379489 0.334969
0.000000 0.528408 0.341980
0.117657 0.526684 0.340257
0.263354 0.524909 0.338482
0.409052 0.523135 0.336707
0.554750 0.521360 0.334933
0.700448 0.519585 0.333158
0.846146 0.517811 0.331383
0.991844 0.516036 0.329609
1.000000 0.515652 0.329224
0.000000 0.664570 0.336235
0.111912 0.662847 0.334512
0.257610 0.661072 0.332737
0.403307 0.659297 0.330962
0.549005 0.657523 0.329188
0.694703 0.655748 0.327413
0.840401 0.653973 0.325638
0.986099 0.652199 0.323864
1.000000 0.651814 0.323479
0.000000 0.800733 0.330491
0.106167 0.799009 0.328767
0.251865 0.797235 0.326992
0.397563 0.795460 0.325218
0.543260 0.793685 0.323443
0.688958 0.791911 0.321668
0.834656 0.790136 0.319894
0.980354 0.788361 0.318119
1.000000 0.787977 0.317735
0.000000 0.936896 0.324746
0.100422 0.935172 0.323022
0.246120 0.933397 0.321247
0.391818 0.931623 0.319473
0.537516 0.929848 0.317698
0.683213 0.928073 0.315923
0.828911 0.926299 0.314149
0.974609 0.924524 0.312374
1.000000 0.924140 0.311990
0.000000 1.000000 0.321425
0.097102 1.000000 0.319702
0.242800 1.000000 0.317927
0.388497 1.000000 0.316152
0.534195 1.000000 0.314378
0.679893 1.000000 0.312603
0.825591 1.000000 0.310828
0.971289 1.000000 0.309054
1.000000 1.000000 0.308669
0.000000 0.000000 0.494580
0.139479 0.000000 0.492857
0.285177 0.000000 0.491082
0.430875 0.000000 0.489307
0.576573 0.000000 0.487533
0.722271 0.000000 0.485758
0.867968 0.000000 0.483983
1.000000 0.000000 0.482209
1.000000 0.000000 0.481824
0.000000 0.119385 0.489458
0.134357 0.117662 0.487734
0.280055 0.115887 0.485960
0.425752 0.114112 0.484185
0.571450 0.112338 0.482410
0.717148 0.110563 0.480635
0.862846 0.108788 0.478861
1.000000 0.107014 0.477086
1.000000 0.106629 0.476702
0.000000 0.255548 0.483713
0.128612 0.253824 0.481989
0.274310 0.252050 0.480215
0.420007 0.250275 0.478440
0.565705 0.248500 0.476665
0.711403 0.246726 0.474891
0.857101 0.244951 0.473116
1.000000 0.243176 0.471341
1.000000 0.242792 0.470957
0.000000 0.391711 0.477968
0.122867 0.389987 0.476244
0.268565 0.388212 0.474470
0.414263 0.386438 0.472695
0.559960 0.384663 0.470920
0.705658 0.382888 0.469146
0.851356 0.381114 0.467371
0.997054 0.379339 0.465596
1.000000 0.378955 0.465212
0.000000 0.527873 0.472223
0.117122 0.526150 0.470500
0.262820 0.524375 0.468725
0.408518 0.522600 0.466950
0.554216 0.520826 0.465176
0.699913 0.519051 0.463401
0.845611 0.517276 0.461626
0.991309 0.515502 0.459852
1.000000 0.515117 0.459467
0.000000 0.664036 0.466478
0.111377 0.662312 0.464755
0.257075 0.660538 0.462980
0.402773 0.658763 0.461205
0.548471 0.656988 0.459431
0.694169 0.655214 0.457656
0.839866 0.653439 0.455881
0.985564 0.651664 0.454107
1.000000 0.651280 0.453722
0.000000 0.800199 0.460734
0.105632 0.798475 0.459010
0.251330 0.796700 0.457235
0.397028 0.794926 0.455461
0.542726 0.793151 0.453686
0.688424 0.791376 0.451911
0.834122 0.789602 0.450137
0.979819 0.787827 0.448362
1.000000 0.787443 0.447978
0.000000 0.936361 0.454989
0.099888 0.934638 0.453265
0.245585 0.932863 0.451490
0.391283 0.931088 0.449716
0.536981 0.929314 0.447941
0.682679 0.927539 0.446166
0.828377 0.925764 0.444392
0.974075 0.923990 0.442617
1.000000 0.923605 0.442233
0.000000 1.000000 0.451668
0.096567 1.000000 0.449945
0.242265 1.000000 0.448170
0.387963 1.000000 0.446395
0.533661 1.000000 0.444621
0.679359 1.000000 0.442846
0.825056 1.000000 0.441071
0.970754 1.000000 0.439297
1.000000 1.000000 0.438912
0.000000 0.000000 0.624823
0.138945 0.000000 0.623100
0.284643 0.000000 0.621325
0.430340 0.000000 0.619550
0.576038 0.000000 0.617776
0.721736 0.000000 0.616001
0.867434 0.000000 0.614226
1.000000 0.000000 0.612452
1.000000 0.000000 0.612067
0.000000 0.118851 0.619701
0.133822 0.117127 0.617977
0.279520 0.115353 0.616203
0.425218 0.113578 0.614428
0.570916 0.111803 0.612653
0.716614 0.110029 0.610879
0.862311 0.108254 0.609104
1.000000 0.106479 0.607329
1.000000 0.106095 0.606945
0.000000 0.255014 0.613956
0.128077 0.253290 0.612232
0.273775 0.251515 0.610458
0.419473 0.249741 0.608683
0.565171 0.247966 0.606908
0.710869 0.246191 0.605134
0.856566 0.244416 0.603359
1.000000 0.242642 0.601584
1.000000 0.242258 0.601200
0.000000 0.391176 0.608211
0.122333 0.389453 0.606488
0.268030 0.387678 0.604713
0.413728 0.385903 0.602938
0.559426 0.384128 0.601163
0.705124 0.382354 0.599389
0.850822 0.380579 0.597614
0.996519 0.378804 0.595839
1.000000 0.378420 0.595455
0.000000 0.527339 0.602466
0.116588 0.525615 0.600743
0.262286 0.523841 0.598968
0.407983 0.522066 0.597193
0.553681 0.520291 0.595419
0.699379 0.518516 0.593644
0.845077 0.516742 0.591869
0.990775 0.514967 0.590095
1.000000 0.514583 0.589710
0.000000 0.663502 0.596722
0.110843 0.661778 0.594998
0.256541 0.660003 0.593223
0.402238 0.658228 0.591448
0.547936 0.656454 0.589674
0.693634 0.654679 0.587899
0.839332 0.652904 0.586124
0.985030 0.651130 0.584350
1.000000 0.650746 0.583966
0.000000 0.799664 0.590977
0.105098 0.797941 0.589253
0.250796 0.796166 0.587478
0.396494 0.794391 0.585704
0.542191 0.792616 0.583929
0.687889 0.790842 0.582154
0.833587 0.789067 0.580380
0.979285 0.787292 0.578605
1.000000 0.786908 0.578221
0.000000 0.935827 0.585232
0.099353 0.934103 0.583508
0.245051 0.932328 0.581733
0.390749 0.930554 0.579959
0.536447 0.928779 0.578184
0.682144 0.927004 0.576409
0.827842 0.925230 0.574635
0.973540 0.923455 0.572860
1.000000 0.923071 0.572476
0.000000 1.000000 0.581911
0.096033 1.000000 0.580188
0.241731 1.000000 0.578413
0.387428 1.000000 0.576638
0.533126 1.000000 0.574864
0.678824 1.000000 0.573089
0.824522 1.000000 0.571314
0.970220 1.000000 0.569540
1.000000 1.000000 0.569155
0.000000 0.000000 0.755067
0.138410 0.000000 0.753343
0.284108 0.000000 0.751568
0.429806 0.000000 0.749794
0.575504 0.000000 0.748019
0.721202 0.000000 0.746244
0.866899 0.000000 0.744469
1.000000 0.000000 0.742695
1.000000 0.000000 0.742311
0.000000 0.118316 0.749944
0.133288 0.116593 0.748220
0.278986 0.114818 0.746446
0.424683 0.113043 0.744671
0.570381 0.111269 0.742896
0.716079 0.109494 0.741122
0.861777 0.107719 0.739347
1.000000 0.105945 0.737572
1.000000 0.105560 0.737188
0.000000 0.254479 0.744199
0.127543 0.252755 0.742475
0.273241 0.250981 0.740701
0.418939 0.249206 0.738926
0.564636 0.247431 0.737151
0.710334 0.245657 0.735377
0.856032 0.243882 0.733602
1.000000 0.242107 0.731827
1.000000 0.241723 0.731443
0.000000 0.390642 0.738454
0.121798 0.388918 0.736731
0.267496 0.387143 0.734956
0.413194 0.385369 0.733181
0.558892 0.383594 0.731407
0.704589 0.381819 0.729632
0.850287 0.380045 0.727857
0.995985 0.378270 0.726083
1.000000 0.377886 0.725698
0.000000 0.526804 0.732709
0.116053 0.525081 0.730986
0.261751 0.523306 0.729211
0.407449 0.521531 0.727436
0.553147 0.519757 0.725662
0.698845 0.517982 0.723887
0.844542 0.516207 0.722112
0.990240 0.514433 0.720338
1.000000 0.514048 0.719953
0.000000 0.662967 0.726965
0.110308 0.661243 0.725241
0.256006 0.659469 0.723466
0.401704 0.657694 0.721692
0.547402 0.655919 0.719917
0.693100 0.654145 0.718142
0.838797 0.652370 0.716367
0.984495 0.650595 0.714593
1.000000 0.650211 0.714209
0.000000 0.799130 0.721220
0.104564 0.797406 0.719496
0.250261 0.795631 0.717721
0.395959 0.793857 0.715947
0.541657 0.792082 0.714172
0.687355 0.790307 0.712397
0.833053 0.788533 0.710623
0.978750 0.786758 0.708848
1.000000 0.786374 0.708464
0.000000 0.935292 0.715475
0.098819 0.933569 0.713751
0.244517 0.931794 0.711977
0.390214 0.930019 0.710202
0.535912 0.928245 0.708427
0.681610 0.926470 0.706652
0.827308 0.924695 0.704878
0.973006 0.922921 0.703103
1.000000 0.922536 0.702719
0.000000 1.000000 0.712155
0.095498 1.000000 0.710431
0.241196 1.000000 0.708656
0.386894 1.000000 0.706882
0.532592 1.000000 0.705107
0.678290 1.000000 0.703332
0.823987 1.000000 0.701557
0.969685 1.000000 0.699783
1.000000 1.000000 0.699399
0.000000 0.000000 0.885310
0.137876 0.000000 0.883586
0.283574 0.000000 0.881811
0.429272 0.000000 0.880037
0.574969 0.000000 0.878262
0.720667 0.000000 0.876487
0.866365 0.000000 0.874713
1.000000 0.000000 0.872938
1.000000 0.000000 0.872554
0.000000 0.117782 0.880187
0.132753 0.116058 0.878463
0.278451 0.114284 0.876689
0.424149 0.112509 0.874914
0.569847 0.110734 0.873139
0.715545 0.108960 0.871365
0.861242 0.107185 0.869590
1.000000 0.105410 0.867815
1.000000 0.105026 0.867431
0.000000 0.253945 0.874442
0.127008 0.252221 0.872718
0.272706 0.250446 0.870944
0.418404 0.248672 0.869169
0.564102 0.246897 0.867394
0.709800 0.245122 0.865620
0.855498 0.243348 0.863845
1.000000 0.241573 0.862070
1.000000 0.241189 0.861686
0.000000 0.390107 0.868697
0.121264 0.388384 0.866974
0.266961 0.386609 0.865199
0.412659 0.384834 0.863424
0.558357 0.383060 0.861650
0.704055 0.381285 0.859875
0.849753 0.379510 0.858100
0.995451 0.377736 0.856326
1.000000 0.377351 0.855941
0.000000 0.526270 0.862952
0.115519 0.524546 0.861229
0.261217 0.522772 0.859454
0.406914 0.520997 0.857679
0.552612 0.519222 0.855905
0.698310 0.517448 0.854130
0.844008 0.515673 0.852355
0.989706 0.513898 0.850581
1.000000 0.513514 0.850196
0.000000 0.662433 0.857208
0.109774 0.660709 0.855484
0.255472 0.658934 0.853709
0.401170 0.657160 0.851935
0.546867 0.655385 0.850160
0.692565 0.653610 0.848385
0.838263 0.651836 0.846611
0.983961 0.650061 0.844836
1.000000 0.649677 0.844452
0.000000 0.798595 0.851463
0.104029 0.796872 0.849739
0.249727 0.795097 0.847964
0.395425 0.793322 0.846190
0.541123 0.791548 0.844415
0.686820 0.789773 0.842640
0.832518 0.787998 0.840866
0.978216 0.786224 0.839091
1.000000 0.785839 0.838707
0.000000 0.934758 0.845718
0.098284 0.933034 0.843994
0.243982 0.931260 0.842220
0.389680 0.929485 0.840445
0.535378 0.927710 0.838670
0.681076 0.925936 0.836896
0.826773 0.924161 0.835121
0.972471 0.922386 0.833346
1.000000 0.922002 0.832962
0.000000 1.000000 0.842398
0.094964 1.000000 0.840674
0.240662 1.000000 0.838899
0.386360 1.000000 0.837125
0.532057 1.000000 0.835350
0.677755 1.000000 0.833575
0.823453 1.000000 0.831801
0.969151 1.000000 0.830026
1.000000 1.000000 0.829642
0.000000 0.000000 1.000000
0.137341 0.000000 1.000000
0.283039 0.000000 1.000000
0.428737 0.000000 1.000000
0.574435 0.000000 1.000000
0.720133 0.000000 1.000000
0.865831 0.000000 1.000000
1.000000 0.000000 1.000000
1.000000 0.000000 1.000000
0.000000 0.117247 1.000000
0.132219 0.115524 1.000000
0.277917 0.113749 1.000000
0.423614 0.111974 1.000000
0.569312 0.110200 1.000000
0.715010 0.108425 1.000000
0.860708 0.106650 0.999833
1.000000 0.104876 0.998058
1.000000 0.104491 0.997674
0.000000 0.253410 1.000000
0.126474 0.251686 1.000000
0.272172 0.249912 1.000000
0.417870 0.248137 0.999412
0.563567 0.246362 0.997637
0.709265 0.244588 0.995863
0.854963 0.242813 0.994088
1.000000 0.241038 0.992313
1.000000 0.240654 0.991929
0.000000 0.389573 0.998940
0.120729 0.387849 0.997217
0.266427 0.386074 0.995442
0.412125 0.384300 0.993667
0.557823 0.382525 0.991893
0.703520 0.380750 0.990118
0.849218 0.378976 0.988343
0.994916 0.377201 0.986569
1.000000 0.376817 0.986184
0.000000 0.525735 0.993195
0.114984 0.524012 0.991472
0.260682 0.522237 0.989697
0.406380 0.520462 0.987922
0.552078 0.518688 0.986148
0.697776 0.516913 0.984373
0.843473 0.515138 0.982598
0.989171 0.513364 0.980824
1.000000 0.512979 0.980439
0.000000 0.661898 0.987451
0.109239 0.660174 0.985727
0.254937 0.658400 0.983952
0.400635 0.656625 0.982178
0.546333 0.654850 0.980403
0.692031 0.653076 0.978628
0.837729 0.651301 0.976854
0.983426 0.649526 0.975079
1.000000 0.649142 0.974695
0.000000 0.798061 0.981706
0.103495 0.796337 0.979982
0.249192 0.794562 0.978207
0.394890 0.792788 0.976433
0.540588 0.791013 0.974658
0.686286 0.789238 0.972883
0.831984 0.787464 0.971109
0.977682 0.785689 0.969334
1.000000 0.785305 0.968950
0.000000 0.934223 0.975961
0.097750 0.932500 0.974237
0.243448 0.930725 0.972463
0.389145 0.928950 0.970688
0.534843 0.927176 0.968913
0.680541 0.925401 0.967139
0.826239 0.923626 0.965364
0.971937 0.921852 0.963589
1.000000 0.921467 0.963205
0.000000 1.000000 0.972641
0.094429 1.000000 0.970917
0.240127 1.000000 0.969142
0.385825 1.000000 0.967368
0.531523 1.000000 0.965593
0.677221 1.000000 0.963818
0.822919 1.000000 0.962044
0.968616 1.000000 0.960269
1.000000 1.000000 0.959885
