assets/.cache/luts/warm.cube
# Generated by aivideomaker post-grade.mjs — preset "warm"
LUT_3D_SIZE 5
DOMAIN_MIN 0.0 0.0 0.0
DOMAIN_MAX 1.0 1.0 1.0
0.000000 0.000000 0.000000
0.287207 0.000000 0.000000
0.578602 0.000000 0.000000
0.869998 0.000000 0.000000
1.000000 0.000000 0.000000
0.000000 0.257578 0.000000
0.276339 0.254079 0.000000
0.567735 0.250530 0.000000
0.859130 0.246980 0.000000
1.000000 0.244822 0.000000
0.000000 0.529903 0.000000
0.264850 0.526405 0.000000
0.556245 0.522855 0.000000
0.847641 0.519306 0.000000
1.000000 0.517147 0.000000
0.000000 0.802228 0.000000
0.253360 0.798730 0.000000
0.544755 0.795180 0.000000
0.836151 0.791631 0.000000
1.000000 0.789472 0.000000
0.000000 1.000000 0.000000
0.244295 1.000000 0.000000
0.535690 1.000000 0.000000
0.827086 1.000000 0.000000
1.000000 1.000000 0.000000
0.000000 0.000000 0.234094
0.286246 0.000000 0.230596
0.577642 0.000000 0.227047
0.869037 0.000000 0.223497
1.000000 0.000000 0.221338
0.000000 0.256617 0.223227
0.275379 0.253119 0.219729
0.566774 0.249569 0.216179
0.858170 0.246020 0.212630
1.000000 0.243861 0.210471
0.000000 0.528942 0.211737
0.263889 0.525444 0.208239
0.555285 0.521895 0.204690
0.846680 0.518345 0.201140
1.000000 0.516186 0.198981
0.000000 0.801268 0.200248
0.252399 0.797769 0.196749
0.543795 0.794220 0.193200
0.835190 0.790670 0.189650
1.000000 0.788512 0.187492
0.000000 1.000000 0.191182
0.243334 1.000000 0.187684
0.534730 1.000000 0.184135
0.826125 1.000000 0.180585
1.000000 1.000000 0.178426
0.000000 0.000000 0.494580
0.285177 0.000000 0.491082
0.576573 0.000000 0.487533
0.867968 0.000000 0.483983
1.000000 0.000000 0.481824
0.000000 0.255548 0.483713
0.274310 0.252050 0.480215
0.565705 0.248500 0.476665
0.857101 0.244951 0.473116
1.000000 0.242792 0.470957
0.000000 0.527873 0.472223
0.262820 0.524375 0.468725
0.554216 0.520826 0.465176
0.845611 0.517276 0.461626
1.000000 0.515117 0.459467
0.000000 0.800199 0.460734
0.251330 0.796700 0.457235
0.542726 0.793151 0.453686
0.834122 0.789602 0.450137
1.000000 0.787443 0.447978
0.000000 1.000000 0.451668
0.242265 1.000000 0.448170
0.533661 1.000000 0.444621
0.825056 1.000000 0.441071
1.000000 1.000000 0.438912
0.000000 0.000000 0.755067
0.284108 0.000000 0.751568
0.575504 0.000000 0.748019
0.866899 0.000000 0.744469
1.000000 0.000000 0.742311
0.000000 0.254479 0.744199
0.273241 0.250981 0.740701
0.564636 0.247431 0.737151
0.856032 0.243882 0.733602
1.000000 0.241723 0.731443
0.000000 0.526804 0.732709
0.261751 0.523306 0.729211
0.553147 0.519757 0.725662
0.844542 0.516207 0.722112
1.000000 0.514048 0.719953
0.000000 0.799130 0.721220
0.250261 0.795631 0.717721
0.541657 0.792082 0.714172
0.833053 0.788533 0.710623
1.000000 0.786374 0.708464
0.000000 1.000000 0.712155
0.241196 1.000000 0.708656
0.532592 1.000000 0.705107
0.823987 1.000000 0.701557
1.000000 1.000000 0.699399
0.000000 0.000000 1.000000
0.283039 0.000000 1.000000
0.574435 0.000000 1.000000
0.865831 0.000000 1.000000
1.000000 0.000000 1.000000
0.000000 0.253410 1.000000
0.272172 0.249912 1.000000
0.563567 0.246362 0.997637
0.854963 0.242813 0.994088
1.000000 0.240654 0.991929
0.000000 0.525735 0.993195
0.260682 0.522237 0.989697
0.552078 0.518688 0.986148
0.843473 0.515138 0.982598
1.000000 0.512979 0.980439
0.000000 0.798061 0.981706
0.249192 0.794562 0.978207
0.540588 0.791013 0.974658
0.831984 0.787464 0.971109
1.000000 0.785305 0.968950
0.000000 1.000000 0.972641
0.240127 1.000000 0.969142
0.531523 1.000000 0.965593
0.822919 1.000000 0.962044
1.000000 1.000000 0.959885
